!!!!SEGMENT: pl-wtm--r-730-42-43-m--002_moniuszko-stanislaw--switezianka-powiedz-mi-piekna.krn
!!!cenid: 18xx:1723
!!!COM: Moniuszko, Stanisław
!!!COM-rismID: pe30008351
!!!CDT: 1819/05/05-1872/06/04
!!!CNT: Polish
!!!GTL: Switezianka
!!!OTL: Powiedz mi piękna
!!!OMV: 002
!!!PDT:
!!!AGN: Secular
!!!SMS-siglum: PL-Wtm
!!!SMS-shelfmark: R 730/42-43/M
!!!SMS-shelfwork: 001-002 G
!!!SMS-variant:
!!!SMS-altvar:
!!!NIFC-rismSourceID: 1001099888
!!!NIFC-rismChildID: 1001099888
!!!NIFC-islandoraID:
!!!URL-pdf-islandora:
!!!URL-scan:
!!!IIIF:
!!!ONB-nifc: Skan 0046-0050, No. 788, R 730|43 (incpl.)
!!!AIN: 1 forte 1 vox
!!!key:
**kern	**kern	**dynam	**kern	**text	**text	**text	**dynam
*part2	*part2	*part2	*part1	*part1	*part1	*part1	*part1
*staff3	*staff2	*	*staff1	*staff1	*staff1	*staff1	*
*Iforte	*Iempty	*	*Ivox	*	*	*	*
*I"fortepian	*	*	*I"Głos	*	*	*	*
*I'pf	*	*	*I'v.	*	*	*	*
*clefF4	*clefG2	*	*clefG2	*	*	*	*
*k[f#c#]	*k[f#c#]	*	*k[f#c#]	*	*	*	*
*D:	*D:	*	*D:	*	*	*	*
*M12/8	*M12/8	*	*M12/8	*	*	*	*
*	*	*below	*	*	*	*	*
*>[A,A1,A,A2,B,B,C,D,D,E]	*	*	*	*	*	*	*
=1	=1	=1	=1	=1	=1	=1	=1
*>A	*	*	*	*	*	*	*
!	!	!	!LO:TX:t=P:problem=opracowane strony ze skanu 0046-0047  chociaż dalsza część tego utworu znajduje się na dalszych skanach	!	!	!	!
*	*tremolo	*	*	*	*	*	*
(4.D\	8f#/L 8d/ 8A/	.	4.f#/	,,Po-	,,Zaw-	.	.
.	8f#/ 8d/ 8A/	.	.	.	.	.	.
.	8f#/J 8d/ 8A/	.	.	.	.	.	.
*	*Xtremolo	*	*	*	*	*	*
8D\)	8f#/L 8d/ 8A/	.	4f#/	-wiedz	-szeż	.	.
8r	8f#/ 8d/ 8A/	.	.	.	.	.	.
8G\	8e/J 8c#/ 8A/	.	8e/	mi	po	.	.
*	*tremolo	*	*	*	*	*	*
(4.G\	8e/L 8c#/ 8A/	.	4.e/	pięk-	knie-	.	.
.	8e/ 8c#/ 8A/	.	.	.	.	.	.
.	8e/J 8c#/ 8A/	.	.	.	.	.	.
4F#\)	8d/L 8A/	.	4d/	-na,	-jach	.	.
.	8d/ 8A/	.	.	.	.	.	.
8r	8d/J 8A/	.	8r	.	.	.	.
*	*Xtremolo	*	*	*	*	*	*
=2	=2	=2	=2	=2	=2	=2	=2
*	*tremolo	*	*	*	*	*	*
([4.F#\	8a/L 8d/ 8A/	.	4.a/	lu-	jak	.	.
.	8a/ 8d/ 8A/	.	.	.	.	.	.
.	8a/J 8d/ 8A/	.	.	.	.	.	.
*	*Xtremolo	*	*	*	*	*	*
4F#\]	8a/L 8d/ 8A/	.	4a/	-ba	sar-	.	.
.	8a/ 8d/ 8A/	.	.	.	.	.	.
8E\)	8g/J 8c#/ 8A/	.	8g/	dziew-	-na	.	.
*	*tremolo	*	*	*	*	*	*
(4.E\	8g/L 8c#/ 8A/	.	4.g/	-czy-	pło-	.	.
.	8g/ 8c#/ 8A/	.	.	.	.	.	.
.	8g/J 8c#/ 8A/	.	.	.	.	.	.
4D\)	8f#/L 8d/ 8A/	.	4f#/	-no,	-cha,	.	.
.	8f#/ 8d/ 8A/	.	.	.	.	.	.
8r	8f#/J 8d/ 8A/	.	8r	.	.	.	.
=3	=3	=3	=3	=3	=3	=3	=3
*	*tremolo	*	*	*	*	*	*
1.AA/	8e/L 8c#/ 8A/	.	4.e/	na	jak	.	.
.	8e/ 8c#/ 8A/	.	.	.	.	.	.
.	8e/ 8c#/ 8A/	.	.	.	.	.	.
.	8e/ 8c#/ 8A/	.	4e/	co	u-	.	.
.	8e/ 8c#/ 8A/	.	.	.	.	.	.
.	8e/J 8c#/ 8A/	.	8e/	nam	-pior	.	.
.	8e/L 8c#/ 8A/	.	4.a/	te	błą-	.	.
.	8e/ 8c#/ 8A/	.	.	.	.	.	.
.	8e/J 8c#/ 8A/	.	.	.	.	.	.
*	*Xtremolo	*	*	*	*	*	*
.	8d/L 8B/ 8A/	.	4d/	ta-	-dzisz	.	.
.	8d/ 8B/ 8A/	.	.	.	.	.	.
.	8e/J 8c#/ 8A/	.	8e/	-jem-	w noc	.	.
=4	=4	=4	=4	=4	=4	=4	=4
*	*tremolo	*	*	*	*	*	*
(4.D/	8f#/L 8d/ 8A/	.	2.f#/	-ni-	ciem-	.	.
.	8f#/ 8d/ 8A/	.	.	.	.	.	.
.	8f#/ 8d/ 8A/	.	.	.	.	.	.
4AA/	8f#/ 8d/ 8A/	.	.	.	.	.	.
.	8f#/ 8d/ 8A/	.	.	.	.	.	.
8GG/)	8f#/J 8d/ 8A/	.	.	.	.	.	.
4.FF#/	8d/L 8A/	.	4d/	-ce,	-ną?	.	.
.	8d/ 8A/	.	.	.	.	.	.
.	8d/J 8A/	.	8r	.	.	.	.
4.GG/	8d/L 8B/ 8G/	.	4r	.	.	.	.
.	8d/ 8B/ 8G/	.	.	.	.	.	.
.	8d/J 8B/ 8G/	.	8r	.	.	.	.
=5	=5	=5	=5	=5	=5	=5	=5
(4.DD/	8f#/L 8d/ 8A/	.	4.f#/	ja-	zos-	.	.
.	8f#/ 8d/ 8A/	.	.	.	.	.	.
.	8f#/J 8d/ 8A/	.	.	.	.	.	.
*	*Xtremolo	*	*	*	*	*	*
8DD/)	8f#/L 8d/ 8A/	.	4f#/	-ką	-tań	.	.
8r	8f#/ 8d/ 8A/	.	.	.	.	.	.
8G\	8e/J 8c#/ 8B-X/	.	8e/	przy-	się	.	.
*	*tremolo	*	*	*	*	*	*
4.G\	8e/L 8c#/ 8B-/	.	4.e/	-bieg-	le-	.	.
.	8e/ 8c#/ 8B-/	.	.	.	.	.	.
.	8e/J 8c#/ 8B-/	.	.	.	.	.	.
4.GG/	8d/L 8B-/	.	4d/	-łaś	-piej	.	.
.	8d/ 8B-/	.	.	.	.	.	.
.	8d/J 8B-/	.	8r	.	.	.	.
!!LO:LB:g=original
=6	=6	=6	=6	=6	=6	=6	=6
[4.FF#/	8a/L 8d/ 8A/	.	4.a/	,,do	,,z tym,	.	.
.	8a/ 8d/ 8A/	.	.	.	.	.	.
.	8a/J 8d/ 8A/	.	.	.	.	.	.
*	*Xtremolo	*	*	*	*	*	*
4FF#/]	8a/L 8d/ 8A/	.	4a/	mnie	kto	.	.
.	8a/ 8d/ 8A/	.	.	.	.	.	.
8EE/	8g/J 8c#/ 8A/	.	8g/	dró-	cię	.	.
*	*tremolo	*	*	*	*	*	*
4.DD/	8g/L 8d/ 8A/	.	4.g/	-ży-	ko-	.	.
.	8g/ 8d/ 8A/	.	.	.	.	.	.
.	8g/J 8d/ 8A/	.	.	.	.	.	.
4.D/	8f#/L 8d/ 8A/	.	4f#/	-ną.?	-cha,	.	.
.	8f#/ 8d/ 8A/	.	.	.	.	.	.
.	8f#/J 8d/ 8A/	.	8r	.	.	.	.
=7	=7	=7	=7	=7	=7	=7	=7
[2.AA/	8a/L 8c#/ 8A/	.	4.a/	gdzie	zos-	.	.
.	8a/ 8c#/ 8A/	.	.	.	.	.	.
.	8a/J 8c#/ 8A/	.	.	.	.	.	.
*	*Xtremolo	*	*	*	*	*	*
.	8g/L 8c#/ 8A/	.	4g/	dom	-tań	.	.
.	8g/ 8c#/ 8A/	.	.	.	.	.	.
.	8e/J 8c#/ 8A/	.	8e/	twój,	się,	.	.
*	*tremolo	*	*	*	*	*	*
2.AA/] 2.AAA/	8a/L 8f#/ 8c#/ 8A/	.	4.a/	gdzie	o	.	.
.	8a/ 8f#/ 8c#/ 8A/	.	.	.	.	.	.
.	8a/J 8f#/ 8c#/ 8A/	.	.	.	.	.	.
*	*Xtremolo	*	*	*	*	*	*
.	8g/L 8e/ 8c#/ 8A/	.	4g/	są	lu-	.	.
.	8g/ 8e/ 8c#/ 8A/	.	.	.	.	.	.
.	8e/J 8c#/ 8A/	.	8e/	ro-	-ba!	.	.
=8	=8	=8	=8	=8	=8	=8	=8
*	*tremolo	*	*	*	*	*	*
2.D/ 2.DD/	8f#/L 8d/ 8A/	.	2.f#/	-dzi-	ze	.	.
.	8f#/ 8d/ 8A/	.	.	.	.	.	.
.	8f#/ 8d/ 8A/	.	.	.	.	.	.
.	8f#/ 8d/ 8A/	.	.	.	.	.	.
.	8f#/ 8d/ 8A/	.	.	.	.	.	.
.	8f#/J 8d/ 8A/	.	.	.	.	.	.
(4.F#\	8d/L 8A/	.	4d/	-ce?	mną.	.	.
.	8d/ 8A/	.	.	.	.	.	.
.	8d/J 8A/	.	8r	.	.	.	.
4.D\)	8f#/L 8d/ 8A/	.	4r	.	.	.	.
.	8f#/ 8d/ 8A/	.	.	.	.	.	.
.	8f#/J 8d/ 8A/	.	8r	.	.	.	.
=9	=9	=9	=9	=9	=9	=9	=9
4.C#/	8a/L 8e/	.	4.a/	Mi-	Cha-	.	.
.	8a/ 8e/	.	.	.	.	.	.
.	8a/J 8e/	.	.	.	.	.	.
*	*Xtremolo	*	*	*	*	*	*
4c#\	8a/L 8e/	.	4a/	-nę-	-tecz-	.	.
.	8a/ 8e/	.	.	.	.	.	.
8d\	8b/J 8g#X/ 8e/	.	8b/	-ło	-ka	.	.
*	*tremolo	*	*	*	*	*	*
(4.d\	8b/L 8g#/ 8e/	.	4.b/	la-	mo-	.	.
.	8b/ 8g#/ 8e/	.	.	.	.	.	.
.	8b/J 8g#/ 8e/	.	.	.	.	.	.
4c#\)	8a/L 8e/	.	4a/	-to,	-ja	.	.
.	8a/ 8e/	.	.	.	.	.	.
8r	8a/J 8e/	.	8r	.	.	.	.
=10	=10	=10	=10	=10	=10	=10	=10
4.B\	8dd/L 8f#/	.	4.dd\	z żół-	stąd	.	.
.	8dd/ 8f#/	.	.	.	.	.	.
.	8dd/J 8f#/	.	.	.	.	.	.
*	*Xtremolo	*	*	*	*	*	*
(4BB/	8dd/L 8b/ 8f#/	.	4dd\	-knia-	nie	.	.
.	8dd/ 8b/ 8f#/	.	.	.	.	.	.
8AA#X/)	8ee/J 8cc#/ 8g/	.	8ee\	-ły	da-	.	.
*	*tremolo	*	*	*	*	*	*
(4.AA#/	8ee/L 8cc#/ 8g/	.	4.ee\	liś-	-le-	.	.
.	8ee/ 8cc#/ 8g/	.	.	.	.	.	.
.	8ee/J 8cc#/ 8g/	.	.	.	.	.	.
4BB/)	8dd/L 8b/ 8f#/	.	4dd\	-ćie,	-ka	.	.
.	8dd/ 8b/ 8f#/	.	.	.	.	.	.
8r	8dd/J 8b/ 8f#/	.	8r	.	.	.	.
!!LO:PB:g=original
=11	=11	=11	=11	=11	=11	=11	=11
[>2.C#/	8cc#/L 8a/ 8f#/	.	4.cc#\	,,i	,,po-	.	.
.	8cc#/ 8a/ 8f#/	.	.	.	.	.	.
.	8cc#/J 8a/ 8f#/	.	.	.	.	.	.
.	8a/L 8f#/ 8c#/	.	4b\	dżdży-	-środ-	.	.
.	8a/ 8f#/ 8c#/	.	.	.	.	.	.
.	8a/J 8f#/ 8c#/	.	8a/	-sta	-ku	.	.
2.C#/] 2.CC#/	8g#X/L 8e#X/ 8c#/	.	4.g#X/	nad-	gęs-	.	.
.	8g#/ 8e#/ 8c#/	.	.	.	.	.	.
.	8g#/J 8e#/ 8c#/	.	.	.	.	.	.
*	*Xtremolo	*	*	*	*	*	*
.	8f#/L 8d#X/ 8c#/	.	4f#/	-cho-	-tej	.	.
.	8f#/ 8d#/ 8c#/	.	.	.	.	.	.
.	8g#/J 8e#/ 8c#/	.	8g#/	-dzi	lesz-	.	.
=12	=12	=12	=12	=12	=12	=12	=12
*	*tremolo	*	*	*	*	*	*
(2.F#/ 2.FF#/	8a/L 8f#/ 8c#/	.	[2.a/	po-	-czy-	.	<
.	8a/ 8f#/ 8c#/	.	.	.	.	.	.
.	8a/ 8f#/ 8c#/	.	.	.	.	.	.
.	8a/ 8f#/ 8c#/	.	.	.	.	.	.
.	8a/ 8f#/ 8c#/	.	.	.	.	.	.
.	8a/J 8f#/ 8c#/	<	.	.	.	.	.
4.Fn/ 4.FFn/	8a/L 8d/	.	4.a/]	.	.	.	.
.	8a/ 8d/	.	.	.	.	.	.
.	8a/J 8d/	.	.	.	.	.	.
4.D/)	8dd/L 8fn/	.	4.dd\	-ra,	-ny;	.	[[
.	8dd/ 8f/	.	.	.	.	.	.
.	8dd/J 8f/	[	.	.	.	.	.
=13	=13	=13	=13	=13	=13	=13	=13
!	!	!LO:DY:rj	!	!	!	!	!
[4.AA/	8dd/L 8g/ 8e/	f	4.dd\	zaw-	jest	.	f
.	8dd/ 8g/ 8e/	.	.	.	.	.	.
.	8dd/J 8g/ 8e/	.	.	.	.	.	.
*	*Xtremolo	*	*	*	*	*	*
8AA/]	8cc#/L 8g/ 8e/	.	4cc#\	-sze	tam	.	.
8r	8cc#/ 8g/ 8e/	.	.	.	.	.	.
8d\	8b/J 8g/ 8e/	.	8b\	mam	dos-	.	.
*	*tremolo	*	*	*	*	*	*
(4.d\	8b/L 8g/ 8e/	.	4.b\	cze-	-tat-	.	.
.	8b/ 8g/ 8e/	.	.	.	.	.	.
.	8b/J 8g/ 8e/	.	.	.	.	.	.
*	*Xtremolo	*	*	*	*	*	*
4c#\	8a/L 8g/ 8e/	.	4a\	-kać	-kiem	.	.
.	8a/ 8g/ 8e/	.	.	.	.	.	.
8B\)	8dd/J 8g/ 8e/	.	8r	.	.	.	.
=14	=14	=14	=14	=14	=14	=14	=14
*	*tremolo	*	*	*	*	*	*
(4.A\	8dd/L 8g/ 8e/	pp	4.dd\	two-	o-	.	pp
.	8dd/ 8g/ 8e/	.	.	.	.	.	.
.	8dd/J 8g/ 8e/	.	.	.	.	.	.
*	*Xtremolo	*	*	*	*	*	*
8AA/)	8cc#/L 8g/ 8e/	.	4cc#\	-je-	-wo-	.	.
8r	8cc#/ 8g/ 8e/	.	.	.	.	.	.
8d\	8b/J 8g/ 8e/	.	8b\	-go	-ców,	.	.
*	*tremolo	*	*	*	*	*	*
(4.d\	8b/L 8g/ 8e/	.	4.b\	przyj-	mlé-	.	.
.	8b/ 8g/ 8e/	.	.	.	.	.	.
.	8b/J 8g/ 8e/	.	.	.	.	.	.
4.c#\)	8b-X/L 8g/ 8e/	.	4.b-X\	-ścia	-ka,	.	.
.	8b-/ 8g/ 8e/	.	.	.	.	.	.
.	8b-/J 8g/ 8e/	.	.	.	.	.	.
=15	=15	=15	=15	=15	=15	=15	=15
4.d\	8a/L 8f#/	.	4.a/	na	jest	.	p
.	8a/ 8f#/	.	.	.	.	.	.
.	8a/J 8f#/	.	.	.	.	.	.
*	*Xtremolo	*	*	*	*	*	*
(4D/	8f#/L 8d/	.	4f#/	dzi-	tam	.	.
.	8f#/ 8d/	.	.	.	.	.	.
8C#/	8a/J 8f#/	.	8a/	-kich	dos-	.	.
*	*tremolo	*	*	*	*	*	*
4.BB/	8dd/L 8f#/	.	4.dd\	brze-	-tat-	.	.
.	8dd/ 8f#/	.	.	.	.	.	.
.	8dd/J 8f#/	.	.	.	.	.	.
*	*Xtremolo	*	*	*	*	*	*
4GG/	8e/L 8d/ 8B/	.	4e/	-gach	-kiem	.	.
.	8e/ 8d/ 8B/	.	.	.	.	.	.
8GG#X/)	8b/J 8f#X/ 8e/ 8d/	.	8b/	je-	zwie-	.	.
=16	=16	=16	=16	=16	=16	=16	=16
(8AA/L	8a/L 8f#/ 8d/	.	[4.a/	-zio-	-rzy-	.	.
8D/	8f#/ 8d/	.	.	.	.	.	.
8F#/J)	8f#/J 8d/	.	.	.	.	.	.
4.A\	(8e/L 8c#/	.	4a/]	.	.	.	.
.	8d/ 8B/	.	.	.	.	.	.
.	8e/J 8c#/)	.	8g/	.	.	.	.
*	*tremolo	*	*	*	*	*	*
[4.D\	8f#/L 8d/	.	4f#/	ra?	-ny,	.	.
.	8f#/ 8d/	.	.	.	.	.	.
.	8f#/J 8d/	.	8r	.	.	.	.
*	*Xtremolo	*	*	*	*	*	*
4D\]	(8f#/L 8d/	.	4r	.	.	.	.
.	8g/ 8e/	.	.	.	.	.	.
8r	8g#X/J 8e#X/)	.	8r	.	.	.	.
!!LO:LB:g=original
=17	=17	=17	=17	=17	=17	=17	=17
*2\right	*tremolo	*	*	*	*	*	*
2.D\	8a/L 8f#/	.	4.a/	,,na	,,jest	.	f
.	8a/ 8f#/	.	.	.	.	.	.
.	8a/J 8f#/	.	.	.	.	.	.
*	*Xtremolo	*	*	*	*	*	*
.	8f#/L 8d/	.	4f#/	dzi-	tam	.	.
.	8f#/ 8d/	.	.	.	.	.	.
.	8a/J 8f#/	.	8a/	-kich	dos-	.	.
4.D/ 4.DD/	8ff#/L 8a/ 8f#/	.	4.ff#\	brze-	-tat-	.	>
.	8ff#/ 8a/ 8f#/	.	.	.	.	.	.
.	8ff#/J 8a#X/ 8f#/	.	.	.	.	.	.
4.G/ 4.GG/	8dd/L 8b/ 8f#/	.	4dd\	-gach	-kiem	.	.
.	(8dd/ 8b/ 8f#/	.	.	.	.	.	]
.	8b/J 8g/)	.	8b\	je-	zwie-	.	.
=18	=18	=18	=18	=18	=18	=18	=18
*^	*^	*	*	*	*	*	*
2.A\	2.AA\	(8a/L 8f#/	2.ryy	.	2.a/	-zio-	-rzy-	.	.
.	.	8g#X/ 8e#X/	.	.	.	.	.	.	.
.	.	8gn/J 8en/	.	.	.	.	.	.	.
.	.	8f#/L 8d#X/	.	.	.	.	.	.	.
.	.	8fn/ 8dn/	.	.	.	.	.	.	.
.	.	8e/J 8c#/)	.	.	.	.	.	.	.
(8d/L	2.D\	2.d/	(8d\L	.	4d/	-ra?	-ny."	.	.
8A#X/	.	.	8c#\	.	.	.	.	.	.
8An/J	.	.	8cn\J	.	8r	.	.	.	.
8G#X/L	.	.	8B\L	.	4r	.	.	.	.
8Gn/	.	.	8B-X\	.	.	.	.	.	.
8F#/J)	.	.	8A\J)	.	8r	.	.	.	.
=19	=19	=19	=19	=19	=19	=19	=19	=19	=19
!LO:TX:t=1. volta	!	!	!	!	!	!	!	!	!
*>A1	*	*	*	*	*	*	*	*	*
2.G/ 2.E/	2.AA\	(8d/L	2.ryy	.	1.r	.	.	.	.
.	.	8c#/	.	.	.	.	.	.	.
.	.	8e/J	.	.	.	.	.	.	.
.	.	8g/L	.	.	.	.	.	.	.
.	.	8b/	.	.	.	.	.	.	.
.	.	8a/J)	.	.	.	.	.	.	.
(8A/L	4D\	[>2.a/	(>8f#\L	.	.	.	.	.	.
8G#X/	.	.	8e#X\	.	.	.	.	.	.
8Gn/J	8r	.	8en\J	.	.	.	.	.	.
8F#/L	4r	.	8d\L	.	.	.	.	.	.
8E/	.	.	8c#\	.	.	.	.	.	.
8D/J)	8r	.	8B\J	.	.	.	.	.	.
=20	=20	=20	=20	=20	=20	=20	=20	=20	=20
[2.E/	[2.AA\	8a/L]	[2.c#\)	.	1.r	.	.	.	.
.	.	8g#X/	.	.	.	.	.	.	.
.	.	8a/J	.	.	.	.	.	.	.
.	.	8b/L	.	.	.	.	.	.	.
.	.	8g#/	.	.	.	.	.	.	.
.	.	8e/J	.	.	.	.	.	.	.
(8E/L]	4AA\]	4.c#/_	2ryy	.	.	.	.	.	.
8D#X/	.	.	.	.	.	.	.	.	.
8E/J	8r	.	.	.	.	.	.	.	.
8A/L	4r	8c#/L]	.	.	.	.	.	.	.
8G/	.	8d/ 8B/	4ryy	.	.	.	.	.	.
8E/J)	8r	8e/J 8c#/	.	.	.	.	.	.	.
=21:|!	=21:|!	=21:|!	=21:|!	=21:|!	=21:|!	=21:|!	=21:|!	=21:|!	=21:|!
!LO:TX:t=2. volta	!	!	!	!	!	!	!	!	!
*>A2	*	*	*	*	*	*	*	*	*
2.G/ 2.E/	2.AA\	(8d/L	2.ryy	.	1.r	.	.	.	.
.	.	8c#X/	.	.	.	.	.	.	.
.	.	8e/J	.	.	.	.	.	.	.
.	.	8g/L	.	.	.	.	.	.	.
.	.	8b-X/	.	.	.	.	.	.	.
.	.	8a/J)	.	.	.	.	.	.	.
(<8Fn/L	2.BB-X\	4.a/	(8d\L	.	.	.	.	.	.
8E/	.	.	8c#\	.	.	.	.	.	.
8F/J	.	.	8d\J	.	.	.	.	.	.
8D/L	.	4.g#X/	8fn\L	.	.	.	.	.	.
8E/	.	.	8e\	.	.	.	.	.	.
8F/J)	.	.	8d\J)	.	.	.	.	.	.
=22	=22	=22	=22	=22	=22	=22	=22	=22	=22
*	*	*	*^	*	*	*	*	*	*
4.Cn/	[2.C\	8a/L	2.cn\	4.ryy	.	1.r	.	.	.	.
.	.	8g#X/	.	.	.	.	.	.	.	.
.	.	8a/J	.	.	.	.	.	.	.	.
(<4.F#X/	.	(<8ccn/L	.	(4.e-X\	.	.	.	.	.	.
.	.	8b-X/	.	.	.	.	.	.	.	.
.	.	8a/J)	.	.	.	.	.	.	.	.
4.G/)	2.C\]	8g#/L	2.B\	4.d\)	.	.	.	.	.	.
.	.	8f#X/	.	.	.	.	.	.	.	.
.	.	8g#/J	.	.	.	.	.	.	.	.
4.C/	.	(8b-/L	.	4.e-\	.	.	.	.	.	.
.	.	8a/	.	.	.	.	.	.	.	.
.	.	8g#/J)	.	.	.	.	.	.	.	.
*v	*v	*	*	*	*	*	*	*	*	*
*	*v	*v	*v	*	*	*	*	*	*
!!LO:LB:g=original
=23||	=23||	=23||	=23||	=23||	=23||	=23||	=23||
*>B	*	*	*	*	*	*	*
*k[b-]	*k[b-]	*	*k[b-]	*	*	*	*
*M4/4	*M4/4	*	*M4/4	*	*	*	*
*met(c)	*met(c)	*	*met(c)	*	*	*	*
!	!	!LO:DY:rj	!LO:TX:A:t=Recitativo	!	!	!	!
2F\ 2FF\	2f/ 2c/ 2A/	f	4r	.	.	.	.
*	*	*	*2\right	*	*	*	*
.	.	.	2ff\	,,Stój!	.	.	.
2r	2r	.	.	.	.	.	.
.	.	.	8cc\	stój"	.	.	.
.	.	.	16r	.	.	.	.
.	.	.	16a\	od-	.	.	.
=24	=24	=24	=24	=24	=24	=24	=24
4r	4r	.	8f/	-po-	.	.	.
.	.	.	8f/	-wie	.	.	.
2.F\	2.a/ 2.f/ 2.c/	.	4r	.	.	.	.
.	.	.	4a/	,,har-	.	.	.
.	.	.	8.a/	-dy	.	.	.
.	.	.	16f/	mło-	.	.	.
=25	=25	=25	=25	=25	=25	=25	=25
1E\	1cc/ 1g/ 1c/	.	4cc\	-ko-	.	.	.
.	.	.	4cc\	-sie	.	.	.
.	.	.	8r	.	.	.	.
.	.	.	8cc\	po-	.	.	.
.	.	.	8cc\	-mnę	.	.	.
.	.	.	8cc\	co	.	.	.
=26	=26	=26	=26	=26	=26	=26	=26
(2D\	(2bn/ 2g/ (2f/	p	2bn\	oj-	.	.	.
2E\)	2b-X/ 2g/ 2c/))	.	4b-X\	-ciec	.	.	.
.	.	.	4b-\	rzekł	.	.	.
=27	=27	=27	=27	=27	=27	=27	=27
*^	*^	*	*	*	*	*	*
!	!	!LO:TUP:b:problem=klamra łukowa	!	!	!	!	!	!	!
!LO:N:vis=1.	!	!LO:TX:i:a:t=a tempo	!	!	!LO:TX:i:a:t=a tempo	!	!	!	!
!	!	!	!LO:TUP:	!	!	!	!	!	!
*	*Xtuplet	*Xtuplet	*tuplet	*	*	*	*	*	*
1D/	6.ryy	6.a/	12f\L	>	4a/	sta-	.	.	.
.	.	.	12f\	.	.	.	.	.	.
.	.	.	12f\J	.	.	.	.	.	.
*	*	*	*tremolo	*	*	*	*	*	*
.	(6.e-X/	(<6.gg/	12f\L	.	4a/	-ry:	.	.	.
.	.	.	12f\	.	.	.	.	.	.
.	.	.	12f\J	.	.	.	.	.	.
*	*	*	*2\right	*	*	*	*	*	*
.	6.d/	6.ff/	12f\L	.	2r	.	.	.	.
.	.	.	12f\	.	.	.	.	.	.
.	.	.	12f\	.	.	.	.	.	.
.	6.c/)	6.ee/)	12f\	.	.	.	.	.	.
.	.	.	12f\	.	.	.	.	.	.
.	.	.	12f\J	.	.	.	.	.	.
*	*	*	*Xtremolo	*	*	*	*	*	*
*v	*v	*	*	*	*	*	*	*	*
*	*v	*v	*	*	*	*	*	*
=28	=28	=28	=28	=28	=28	=28	=28
*	*Xtuplet	*	*	*	*	*	*
!LO:TX:t=P:problem=mixed beam	!	!	!	!	!	!	!
12BB-/L	6.dd\	] pp	4f/	Sło-	.	.	.
12d\ 12B-\ 12F\	.	.	.	.	.	.	.
12d\J 12B-\ 12F\	.	.	.	.	.	.	.
*tremolo	*	*	*	*	*	*	*
12d\L 12B-\ 12F\	6dd\	.	8.f/	-wi-	.	.	.
12d\ 12B-\ 12F\	.	.	.	.	.	.	.
12d\J 12B-\ 12F\	12cc\	.	.	.	.	.	.
.	.	.	16f/	-cze	.	.	.
*	*tremolo	*	*	*	*	*	*
12d\L 12B-\ 12F\	(6.cc\	.	4f/	wdzię-	.	.	.
12d\ 12B-\ 12F\	.	.	.	.	.	.	.
12d\ 12B-\ 12F\	.	.	.	.	.	.	.
12d\ 12B-\ 12F\	6b-\)	.	4f/	-ki	.	.	.
12d\ 12B-\ 12F\	.	.	.	.	.	.	.
12d\J 12B-\ 12F\	12r	.	.	.	.	.	.
*Xtremolo	*	*	*	*	*	*	*
!!LO:PB:g=original
=29	=29	=29	=29	=29	=29	=29	=29
!LO:TX:t=P:problem=mixed beam	!	!	!	!	!	!	!
12BB-\L	6.ff\	.	4f/	w męsz-	.	.	.
12d\ 12B-\ 12F\	.	.	.	.	.	.	.
12d\J 12B-\ 12F\	.	.	.	.	.	.	.
*tremolo	*	*	*	*	*	*	*
12d\L 12B-\ 12F\	6ff\	.	8.dd\	-czyz-	.	.	.
12d\ 12B-\ 12F\	.	.	.	.	.	.	.
12d\J 12B-\ 12F\	12ee\	.	.	.	.	.	.
.	.	.	16cc\	-ny	.	.	.
12A\L 12F\	(6.ee\	.	4cc\	gło-	.	.	.
12A\ 12F\	.	.	.	.	.	.	.
12A\J 12F\	.	.	.	.	.	.	.
12B-\L 12F\	6.dd\)	.	8b-\	-sie,	.	.	.
12B-\ 12F\	.	.	.	.	.	.	.
.	.	.	8r	.	.	.	.
12B-\J 12F\	.	.	.	.	.	.	.
*Xtremolo	*	*	*	*	*	*	*
=30	=30	=30	=30	=30	=30	=30	=30
!LO:TX:t=P:problem=mixed beam	!	!	!	!	!	!	!
12FF/L	(6.ff\	.	4a/	a	.	.	.
12c\ 12A\ 12F\	.	.	.	.	.	.	.
12c\J 12A\ 12F\	.	.	.	.	.	.	.
*tremolo	*	*	*	*	*	*	*
12c\L 12A\ 12F\	6ee\	.	8.a/	w ser-	.	.	.
12c\ 12A\ 12F\	.	.	.	.	.	.	.
12c\J 12A\ 12F\	12cc\)	.	.	.	.	.	.
.	.	.	16a/	-cu	.	.	.
*Xtremolo	*	*	*	*	*	*	*
!LO:TX:t=P:problem=mixed beam	!	!	!	!	!	!	!
12FF/L	(6.ff\	.	4a/	li-	.	.	.
12c\ 12A\ 12F\	.	.	.	.	.	.	.
12c\J 12A\ 12F\	.	.	.	.	.	.	.
*tremolo	*	*	*	*	*	*	*
12c\L 12A\ 12F\	6ee\	.	8.g/	-sie	.	.	.
12c\ 12A\ 12F\	.	.	.	.	.	.	.
12c\J 12A\ 12F\	12cc\)	.	.	.	.	.	.
.	.	.	16f/	za-	.	.	.
*Xtremolo	*	*	*	*	*	*	*
=31	=31	=31	=31	=31	=31	=31	=31
!LO:TX:t=P:problem=mixed beam	!	!	!	!	!	!	!
12BB-\L	(3.dd\	.	2f/	-mia-	.	.	.
12d\ 12B-\	.	.	.	.	.	.	.
12d\J 12B-\	.	.	.	.	.	.	.
6.d\ 6.B-\	.	.	.	.	.	.	.
!LO:N:vis=6	!	!	!	!	!	!	!
6.r	[6.b-\)	.	4b-\	-ry.	.	.	.
6.c#X\ 6.G\ 6.E\ 6.AA\	6b-\]	.	4r	.	.	.	.
.	12a\	.	.	.	.	.	.
=32	=32	=32	=32	=32	=32	=32	=32
*^	*	*	*	*	*	*	*
*tuplet	*	*	*	*	*	*	*	*
!	!	!LO:TUP:a:problem=klamra łukowa	!	!	!	!	!	!
12D\L	4ryy	4a\	.	4f/	Wię-	.	.	.
12A\	.	.	.	.	.	.	.	.
12d\J	.	.	.	.	.	.	.	.
*Xtuplet	*	*	*	*	*	*	*	*
!	!	!LO:TUP:b:problem=klamra łukowa	!	!	!	!	!	!
12G/L	6G\	4r	.	8.e/	-cej	.	.	.
12A/	.	.	.	.	.	.	.	.
12F/J	12F\	.	.	.	.	.	.	.
.	.	.	.	16d/	się	.	.	.
!	!	!LO:TUP:b:problem=klamra łukowa	!	!	!	!	!	!
12E/L	3.AA\	(4.bb-\ 4.b-\	.	(4c#X/	wa-	.	.	.
12A/	.	.	.	.	.	.	.	.
12E/J	.	.	.	.	.	.	.	.
!	!	!LO:TUP:b:problem=klamra łukowa	!	!	!	!	!	!
12F/L	.	.	.	8d/)	.	.	.	.
12A/	.	.	.	.	.	.	.	.
.	.	8aa\ 8a\)	.	8e/	-szej	.	.	.
12G/J	.	.	.	.	.	.	.	.
=33	=33	=33	=33	=33	=33	=33	=33	=33
!	!	!LO:TUP:b:problem=klamra łukowa	!	!	!	!	!	!
12F/L	4D\	(4ff\	]	4f/	ob-	.	.	.
12A/	.	.	.	.	.	.	.	.
12d/J	.	.	.	.	.	.	.	.
!	!	!LO:TUP:b:problem=klamra łukowa	!	!	!	!	!	!
12e/L	4r	8.ee\L	.	8.g/	-łu-	.	.	.
12A/	.	.	.	.	.	.	.	.
12f/J	.	.	.	.	.	.	.	.
.	.	16dd\Jk)	.	16a/	-dy	.	.	.
!	!	!LO:TUP:a:problem=klamra łukowa, przez dwie triole	!	!	!	!	!	!
12e/L	4G\	(4cc#X\	.	4.b-/	bo-	.	.	.
12c#X/	.	.	.	.	.	.	.	.
12B-/J	.	.	.	.	.	.	.	.
12G/L	4r	4ee\)	.	.	.	.	.	.
12E/	.	.	.	.	.	.	.	.
.	.	.	.	8a/	-ję,	.	.	.
12C/J	.	.	.	.	.	.	.	.
*v	*v	*	*	*	*	*	*	*
=34	=34	=34	=34	=34	=34	=34	=34
*	*tremolo	*	*	*	*	*	*
!LO:N:vis=1.	!LO:TX:t=P:problem=grupa 4.	!	!	!	!	!	!
1E/ 1DD/	12dd\L 12a\ 12f\	.	4a/	niż	.	.	.
.	12dd\ 12a\ 12f\	.	.	.	.	.	.
.	12dd\J 12a\ 12f\	.	.	.	.	.	.
!	!LO:TX:t=P:problem=grupa 4.	!	!	!	!	!	!
.	12a/L 12f/ 12d/	.	8.a/	w -zmien	.	.	.
.	12a/ 12f/ 12d/	.	.	.	.	.	.
.	12a/J 12f/ 12d/	.	.	.	.	.	.
.	.	.	16a/	-ne	.	.	.
!	!LO:TX:t=P:problem=grupa 4.	!	!LO:SIC:v:t=wykreślone dźwięki	!	!	!	!
.	12f/L 12d/ 12A/	.	4a/	u-	.	.	.
.	12f/ 12d/ 12A/	.	.	.	.	.	.
.	12f/J 12d/ 12A/	.	.	.	.	.	.
!	!LO:TX:t=P:problem=grupa 4.	!	!	!	!	!	!
.	12d/L 12B-/ 12G/	.	8.g/	-fam	.	.	.
.	12d/ 12B-/ 12G/	.	.	.	.	.	.
.	12d/J 12B-/ 12G/	.	.	.	.	.	.
.	.	.	16f/	za-	.	.	.
!!LO:LB:g=original
=35	=35	=35	=35	=35	=35	=35	=35
!	!	!	!LO:SIC:v:t=wykreślone dźwięki	!	!	!	!
4C#X\	12e/L 12E/	.	(4.e/	-pa-	.	.	.
.	12e/ 12E/	.	.	.	.	.	.
.	12e/J 12E/	.	.	.	.	.	.
*	*Xtremolo	*	*	*	*	*	*
(4BB-X\	(<(>12d/L 12G#X/	.	.	.	.	.	.
.	12e/ 12E/	.	.	.	.	.	.
.	.	.	8f/)	.	.	.	.
.	12e/J 12E/	.	.	.	.	.	.
4AA\)	(12c#X/L 12A/))	.	4e/	-ły;	.	.	.
.	12d/ 12Bn/	.	.	.	.	.	.
.	12d#X/J 12B#X/	.	.	.	.	.	.
4r	12e/L 12c#/	.	4r	.	.	.	.
.	12f/ 12d#/	.	.	.	.	.	.
.	12g/J 12e/)	.	.	.	.	.	.
=36	=36	=36	=36	=36	=36	=36	=36
*^	*	*	*	*	*	*	*
*	*^	*	*	*	*	*	*	*
*tuplet	*Xtuplet	*	*	*	*	*	*	*	*
!	!	!	!LO:TUP:a:problem=klamra łukowa	!	!	!	!	!	!
12D/L	6.D\	3.ryy	4f/ 4d/	.	4f/	mo-	.	.	.
12A/	.	.	.	.	.	.	.	.	.
12d/J	.	.	.	.	.	.	.	.	.
*Xtuplet	*	*	*	*	*	*	*	*	*
!	!	!	!LO:TUP:b:problem=klamra łukowa	!	!	!	!	!	!
12G/L	6G\	.	4r	.	8.e/	-że-	.	.	.
12A/	.	.	.	.	.	.	.	.	.
12F/J	12F\	.	.	.	.	.	.	.	.
.	.	.	.	.	16d/	-bym	.	.	.
12E/L	6.E\	3.AA\	(4.bb-\ (4.b-\	>	(4c#X/	proś-	.	.	.
12A/	.	.	.	.	.	.	.	.	.
12E/J	.	.	.	.	.	.	.	.	.
!	!	!	!LO:TUP:b:problem=klamra łukowa	!	!	!	!	!	!
12F/L	6F\	.	.	.	8d/)	.	.	.	.
12A/	.	.	.	.	.	.	.	.	.
.	.	.	8aa\ 8a\))	]	8e/	-by	.	.	.
12G/J	12G\	.	.	.	.	.	.	.	.
*	*v	*v	*	*	*	*	*	*	*
=37	=37	=37	=37	=37	=37	=37	=37	=37
12F/L	4D\	(4ff\	.	4f/	przy-	.	.	.
12A/	.	.	.	.	.	.	.	<
12d/J	.	.	.	.	.	.	.	.
!	!	!LO:N:vis=8	!	!	!	!	!	!
12G/L	4r	8.ee\L	.	8g/	-ię-	.	.	.
12A/	.	.	.	.	.	.	.	.
.	.	.	.	8a/	-ła	.	.	[
12F/J	.	.	.	.	.	.	.	.
.	.	16dd\Jk)	.	.	.	.	.	.
4G\	12GG\L	(4.ccc\ 4.cc\	>	4.cc\	two-	.	.	f
.	12BB-\	.	.	.	.	.	.	>
.	12D\J	.	.	.	.	.	.	.
4ryy	12G\L	.	.	.	.	.	.	.
.	12B-\	.	.	.	.	.	.	.
.	.	8bb-\ 8b-\)	]	8b-\	-je;	.	.	]
.	12d\J	.	.	.	.	.	.	.
*v	*v	*	*	*	*	*	*	*
=38	=38	=38	=38	=38	=38	=38	=38
*	*tremolo	*	*	*	*	*	*
!LO:N:vis=1.	!LO:TX:t=P:problem=grupa 4.	!	!	!	!	!	!
1D/ 1DD/	12dd\L 12a\ 12f\	.	4a/	a-	.	.	] pp
.	12dd\ 12a\ 12f\	.	.	.	.	.	.
.	12dd\J 12a\ 12f\	.	.	.	.	.	.
!	!LO:TX:t=P:problem=grupa 4.	!	!	!	!	!	!
.	12a/L 12f/ 12d/	.	8.a/	-le	.	.	.
.	12a/ 12f/ 12d/	.	.	.	.	.	.
.	12a/J 12f/ 12d/	.	.	.	.	.	.
.	.	.	16g/	czy	.	.	.
!	!LO:TX:t=P:problem=grupa 4.	!	!	!	!	!	!
.	12f/L 12d/ 12A/	.	4dd\	bę-	.	.	.
.	12f/ 12d/ 12A/	.	.	.	.	.	.
.	12f/J 12d/ 12A/	.	.	.	.	.	.
!	!LO:TX:t=P:problem=grupa 4.	!	!	!	!	!	!
.	12d/L 12B-/ 12G/	.	8f/	-dziesz	.	.	.
.	12d/ 12B-/ 12G/	.	.	.	.	.	.
.	.	.	8g/	mnie	.	.	.
.	12d/J 12B-/ 12G/	.	.	.	.	.	.
*	*Xtremolo	*	*	*	*	*	*
=39	=39	=39	=39	=39	=39	=39	=39
*tuplet	*	*	*	*	*	*	*
!	!LO:TUP:a:problem=klamra łukowa	!	!	!	!	!	!
!	!LO:TX:a:t=Piu moſso	!	!	!	!	!	!
12D\L	4d/ 4c/ 4A/	.	2a/	sta-	.	.	.
12C#X\	.	.	.	.	.	.	.
12D\J	.	.	.	.	.	.	.
*Xtuplet	*	*	*	*	*	*	*
!	!LO:TUP:a:problem=klamra łukowa	!	!	!	!	!	!
12F\L	4r	.	.	.	.	.	.
12A\	.	.	.	.	.	.	.
12d\J	.	.	.	.	.	.	.
(4..f\	4r	.	4d/	-ły?"	.	.	.
.	8.ddd\L 8.aa\ 8.dd\	f	4r	.	.	.	.
16f#X\)	16ccc\Jk 16aa\ 16dd\	.	.	.	.	.	.
=40	=40	=40	=40	=40	=40	=40	=40
!	!	!	!LO:TX:t=P:problem=brak częśći opracowania	!	!	!	!
8g\L 8G\	8bb-\L 8gg\ 8dd\	.	1ryy	.	.	.	.
8d\J 8D\	8aa\J 8ff\ 8dd\	.	.	.	.	.	.
!	!LO:TX:t=P:problem=brak częśći opracowania	!	!	!	!	!	!
4r	4r	.	.	.	.	.	.
!	!LO:TX:t=P:problem=brak częśći opracowania	!	!	!	!	!	!
2ryy	2ryy	.	.	.	.	.	.
!!LO:PB:g=original
=41||	=41||	=41||	=41||	=41||	=41||	=41||	=41||
*k[f#c#]	*k[f#c#]	*	*k[f#c#]	*	*	*	*
*M12/8	*M12/8	*	*	*	*	*	*
*^	*^	*	*	*	*	*	*
!	!	!	!	!	!LO:TX:t=P:problem=brak oznaczenia zmiany metrum i tonacji	!	!	!	!
[1.F#/	4r	4r	[1.f#\	sf	8f#/	Próż-	.	.	.
.	.	.	.	.	8f#/	-no	.	.	.
.	8r	8r	.	.	8f#/	się	.	.	.
*	*	*	*	*^	*	*	*	*	*
!	!	!	!	!LO:DY:b=2	!LO:DY:a	!	!	!	!	!
.	.	.	.	pp	pp	.	.	.	.	.
*	*	*	*	*v	*v	*	*	*	*	*
.	4C#'\	4a#X/ 4e'/	.	.	4f#/	za	.	.	.
.	8r	8r	.	.	8f#/	nią	.	.	.
.	4BB'\	4dd/ 4d'/	.	.	8f#/	strze-	.	.	.
.	.	.	.	.	8f#/	-lec	.	.	.
.	8r	8r	.	.	8f#/	po-	.	.	.
.	4AA#X'\	4cc#/ 4e'/	.	.	4f#/	-my-	.	.	.
.	8r	8r	.	.	8f#/	-ka,	.	.	.
=42	=42	=42	=42	=42	=42	=42	=42	=42	=42
4.F#/]	4BB\	4dd/ 4d'/	4.f#\]	.	8f#/	rą-	.	.	.
.	.	.	.	.	8e/	-czym	.	.	.
.	8r	8r	.	.	8f#/	wy-	.	.	.
4.G/	4E\	4b/ 4e'/	4.g\	.	8a/	-bie-	.	.	.
.	.	.	.	.	8g/	-gom	.	.	.
.	8r	8r	.	.	8f#/	nie	.	.	.
(4.G\ (4.AA\	(4.E/	(4.cc#/	(4.e\	>	4.e/	spros-	.	.	.
4F#/))	4D\)	4dd/)	4f#\)	.	4f#/	-tał,	.	.	.
8r	8ryy	8r	8ryy	]	8r	.	.	.	.
=43	=43	=43	=43	=43	=43	=43	=43	=43	=43
(1.F#/	4r	4r	[1.f#\	sf	8f#/	znik-	.	.	.
.	.	.	.	.	8f#/	-ła	.	.	.
.	8r	8r	.	.	8f#/	jak	.	.	.
*	*	*	*	*^	*	*	*	*	*
!	!	!	!	!LO:DY:b=2	!LO:DY:a	!	!	!	!	!
.	4A#X\ 4C#'\	4a#X/ 4e/	.	pp	pp	4f#/	lek-	.	.	.
*	*	*	*	*v	*v	*	*	*	*	*
.	8r	8r	.	.	8f#/	-ki	.	.	.
.	4B\ 4BB'\	4b/ 4d/	.	.	8f#/	po-	.	.	.
.	.	.	.	.	8f#/	-wiew	.	.	.
.	8r	8r	.	.	8f#/	wiet-	.	.	.
.	4c#\ 4AA#X'\	4cc#/ 4c#/	.	.	4f#/	-rzy-	.	.	.
.	8r	8r	.	.	8f#/	-ka	.	.	.
*v	*v	*	*	*	*	*	*	*	*
*	*v	*v	*	*	*	*	*	*
=44	=44	=44	=44	=44	=44	=44	=44
4B\ 4BB'\)	4dd/ 4f#/] 4d'/	>	8f#/	a	.	.	.
.	.	.	8e/	on	.	.	.
8r	8r	.	8f#/	sam	.	.	.
8B\ 8E'\	8gg\ 8b\ 8g'\	.	8a/	je-	.	.	.
8r	8r	.	8g/	-den	.	.	.
8r	8r	.	8e/	po-	.	.	.
(4A#X\ (4F#\	(4.cc#\ 4.e\	.	4.f#/	-zo-	.	.	.
4B\ 4BB\))	.	.	.	.	.	.	.
.	4b\ 4d\)	.	4B/	-stał.	.	.	.
8r	.	.	.	.	.	.	.
8r	8r	.	8r	.	.	.	.
!!LO:LB:g=original
=45	=45	=45	=45	=45	=45	=45	=45
*^	*^	*	*	*	*	*	*
1.D/	4r	[1.d</	4r<	] sf	8d/	Sam	.	.	.
.	.	.	.	.	8d/	zos-	.	.	.
.	8r	.	8r<	.	8d/	-tał,	.	.	.
.	(4.FF#\	.	(4.c#</ 4.A</	p	4d/	dzi-	.	.	.
.	.	.	.	.	8d/	-ką	.	.	.
.	4.EE#X\	.	4.B#X</ 4.G#X</	.	8d/	pow-	.	.	.
.	.	.	.	.	8d/	-ra-	.	.	.
.	.	.	.	.	8d/	-ca	.	.	.
.	4.FF#\)	.	4.c#</ 4.A</)	.	4d/	dro-	.	.	.
.	.	.	.	.	8d/	-gą,	.	.	.
*v	*v	*	*	*	*	*	*	*	*
*	*v	*v	*	*	*	*	*	*
=46	=46	=46	=46	=46	=46	=46	=46
4.GG#X\	4.d</] 4.B</ 4.E#X</	.	8d/	zie-	.	.	.
.	.	.	8c#/	-mia	.	.	.
.	.	.	8d/	u-	.	.	.
4.AA\	4.d</ 4.A</ 4.F#</	.	8f#/	-chy-	.	.	.
.	.	.	8e/	-la	.	.	.
.	.	.	8d/	się	.	.	.
4.AAA\	(<(>4.e</ 4.c#</ 4.Gn</	>	4.a/	grząz-	.	.	.
4DD\	4f#</ 4d</ 4F#</))	]	4f#/	-ka,	.	.	.
8r	8r<yy	.	8r	.	.	.	.
=47	=47	=47	=47	=47	=47	=47	=47
[2.D\ [2.DD\	4r<	sf	8d/	ci-	.	.	.
.	.	.	8d/	-sza	.	.	.
.	8r<	.	8d/	w o-	.	.	.
.	(4.cn</ 4.A</ 4.F#</	p	4d/	-ko-	.	.	.
.	.	.	8d/	-ło,	.	.	.
4.D\] 4.DD\]	4.Bn</ 4.G#X</ 4.Fn</	.	8d/	tyl-	.	.	.
.	.	.	8d/	-ko	.	.	.
.	.	.	8d/	pod	.	.	.
4.C#\	4.B-X</ 4.G#</ 4.E</)	.	4d/	no-	.	.	.
.	.	.	8d/	-gą	.	.	.
=48	=48	=48	=48	=48	=48	=48	=48
4.D\	4.A</ 4.F#</	.	8d/	zwię-	.	.	.
.	.	.	8c#/	-dła	.	.	.
.	.	.	8d/	sze-	.	.	.
4.BB\	4.d</ 4.B</ 4.F#</	.	8f#/	-lesz-	.	.	.
.	.	.	8e/	-cze	.	.	.
.	.	.	8d/	ga-	.	.	.
(4.FF#\	(<(>4.c#</ 4.A#X</ 4.E</	>	4.c#/	-łąz-	.	.	.
4BBB\)	4B</ 4D</))	]	4B/	-ka,	.	.	.
8r	8r<	.	8r	.	.	.	.
!!LO:PB:g=original
=49||	=49||	=49||	=49||	=49||	=49||	=49||	=49||
*k[f#c#g#d#a#e#]	*k[f#c#g#d#a#e#]	*	*k[f#c#g#d#a#e#]	*	*	*	*
*M6/8	*M6/8	*	*M6/8	*	*	*	*
!LO:TX:t=P:problem=mixed beam	!	!	!	!	!	!	!
8FF#/L	(8ff#/L 8a#/	.	8ff#\	Chłop-	Daj	.	.
8c#\	8a#/ 8e#'/)	.	8a#/	-cze	się	.	.
8A#\J	8cc#/J 8f#'/	.	8cc#\	mój	na-	.	.
!LO:TX:t=P:problem=mixed beam	!	!	!	!	!	!	!
(8G#\L	4dd#/ [4b/ 4f#/	>	4dd#^\	pię-	-mó-	.	.
8c#\)	.	]	.	.	.	.	.
8C#'/J	8cc#/ 8b/] 8e#/	.	8cc#\	-kny	-wić	.	.
=50	=50	=50	=50	=50	=50	=50	=50
!LO:TX:t=P:problem=mixed beam	!	!	!	!	!	!	!
8FF#/L	(8ff#/L 8a#/	.	8ff#\	chłop-	czu-	.	.
8c#\	8a#/ 8f#/)	.	8a#/	-cze	-łym	.	.
8A#\J	8cc#/J 8f#'/	.	8cc#/	mój	wy-	.	.
!LO:TX:t=P:problem=mixed beam	!	!	!	!	!	!	!
(8G#\L	4dd#/ [4b/ 4f#/	>	4dd#/	mło-	-ra-	.	.
8c#\)	.	]	.	.	.	.	.
8C#'/J	8cc#/ 8b/] 8e#/	.	8cc#/	-dy,	-zem	.	.
=51	=51	=51	=51	=51	=51	=51	=51
*^	*	*	*	*	*	*	*
(<8c#/L	4.F#\	(8cc#/L 8a#/	.	8cc#/	za-	po-	.	.
8d#/	.	8b#X/ 8g##X/	.	8b#X/	-nóc-	-rzyć	.	.
!	!	!LO:TX:t=P:problem=kasownik obok krzyżyka	!	!	!	!	!	!
8e#/J)	.	8bn/J 8g#X/)	.	8bn/	-ci	wdy-	.	.
8f#/L	(>8F#\L	8a#/L 8f#/	.	8a#X/	czy-	-cha-	.	.
8c#/	8B\)	8g#/ 8e#/	.	8g#/	-le	-nia	.	.
8c#/J	8A#\J	8f#/J	.	8f#/	dzie-	i	.	.
=52	=52	=52	=52	=52	=52	=52	=52	=52
*	*	*^	*	*^	*	*	*	*
8c#\L 8G#\	4.ryy	8g#/L 8e#/	4.ryy	.	(4e#/	4e#\	-wi-	ża-	.	.
8G#\ 8E#\	.	8cc#/ 8g#/	.	.	.	.	.	.	.	.
8G#\J 8D#\	.	8b#X/J 8f#/	.	.	8g#/)	8ryy	.	.	.	.
4G#/	8C#\L	4cc#/	8e#\L	.	4c#/	4ryy	-ca	-le,	.	.
.	8D#\	.	8f#\	.	.	.	.	.	.	.
8r	8E#\J	8r	8g#\J	.	8r	8ryy	.	.	.	.
*v	*v	*	*	*	*v	*v	*	*	*	*
*	*v	*v	*	*	*	*	*	*
=53	=53	=53	=53	=53	=53	=53	=53
!LO:TX:t=P:problem=mixed beam	!	!	!	!	!	!	!
8F#/L 8FF#/	(8ff#/L 8a#/	.	8ff#\	po	do	.	.
8c#\	8a#/ 8f#/)	.	8a#/	co	mnie	.	.
8A#\J	8cc#/J 8f#/	.	8cc#/	w o-	tu,	.	.
!LO:TX:t=P:problem=mixed beam	!	!	!	!	!	!	!
(8G#\L	(4dd#/ 4b#X/ (4f#/	>	4dd#/	-ko-	do	.	.
8GG#/)	.	]	.	.	.	.	.
8C#/J	8cc#/ 8bn/ 8e#/))	.	8cc#/	-ło	mnie	.	.
=54	=54	=54	=54	=54	=54	=54	=54
!LO:TX:t=P:problem=mixed beam	!	!	!	!	!	!	!
8FF#/L	(<8ff#/L 8a#/	.	8ff#\	Świ-	tu	.	.
8c#\	8a#/ 8f#/)	.	8a#/	-te-	bę-	.	.
8A#\J	8cc#/J 8f#/	.	8cc#\	-ziu	-dziem	.	.
!LO:TX:t=P:problem=mixed beam	!	!	!	!	!	!	!
8G#\L	(4dd#/ 4b#X/ (4f#/	>	4dd#\	wo-	ra-	.	.
8GG#/	.	]	.	.	.	.	.
8C#/J	8cc#/ 8bn/ 8e#/))	.	8cc#\	-dy	-zem	.	.
!!LO:LB:g=original
=55	=55	=55	=55	=55	=55	=55	=55
(8F#\L	(8cc#/L 8a#/ 8f#/	.	8cc#\	błą-	po	.	.
8d#\)	8b#X/ 8g#/ 8f##X/)	.	8b#X\	-dzisz	wod-	.	.
8c#'\J	8cc#/J 8a#/ 8f##'/	.	8cc#\	przy	-nym	.	.
!LO:TX:t=P:problem=mixed beam	!	!	!	!	!	!	!
(8B\L	(4dd#/ 4bn/ 4f##/	.	8ff#\	świet-	plus-	.	.
8BB/)	.	.	16ee#\LL	-le	-kać	.	.
.	.	.	16dd#\JJ	.	.	.	.
8D#/J	8b/ 8f##/)	.	16cc#\LL	Xię-	kry-	.	.
.	.	.	16bn\JJ	.	.	.	.
=56	=56	=56	=56	=56	=56	=56	=56
*^	*	*	*	*	*	*	*
8C#/L	4.C#\	4a#/ 4f#/	.	(4a#/	-ży-	-szta-	.	.
8c#/	.	.	.	.	.	.	.	.
8B/J	.	8g#/ 8e#/	.	8g#/)	.	.	.	.
4A#/	8F#'\L	4f#/	.	4f#/	-ca?	-le.	.	.
.	8C#'\	.	.	.	.	.	.	.
8r	8FF#'\J	8r	.	8r	.	.	.	.
*v	*v	*	*	*	*	*	*	*
=57	=57	=57	=57	=57	=57	=57	=57
(8C#\L	(8g#/L 8e#/	.	8g#/	po	czy	.	.
8c#\)	8f##X/ 8d##X/	.	8f##X/	co	zech-	.	.
8C#'\J	8g#/J 8e#/)	.	8g#/	ża-	-cesz,	.	.
!	!	!	!LO:SIC:v:t=wykreślone dźwięki	!	!	!	!
(8c#\L	(4an/ (4f##/	>	4an\	-łu-	ni-	.	.
16B#X\L	.	]	.	.	.	.	.
16A##X\J	.	.	.	.	.	.	.
!	!LO:TX:t=P:problem=kasownik obok krzyżyka	!	!	!	!	!	!
8B#\J)	8g#/ 8d#X/))	.	8g#\	-iesz	-by	.	.
=58	=58	=58	=58	=58	=58	=58	=58
!LO:TX:t=P:problem=mixed beam	!	!	!	!	!	!	!
(8c#\L	(8g#/L 8e#/	.	8g#/	dzi-	jas-	.	.
8C#/)	8f##X/ 8d##X/	.	8f##X/	-kiej	-kół-	.	.
8c#'\J	8g#/J 8e#/)	.	8g#/	wietrz-	-ka	.	.
!	!	!	!LO:SIC:v:t=wykreślone dźwięki	!	!	!	!
(8Cn/L	(4an/ 4f##/	>	4a#\	-ni-	chyb-	.	.
16BB#X/L	.	]	.	.	.	.	.
16AA##X/J	.	.	.	.	.	.	.
!	!LO:TX:t=P:problem=kasownik obok krzyżyka	!	!	!	!	!	!
8BB#/J)	8g#/ 8d#X/)	.	8g#/	-cy	-ka	.	.
=59	=59	=59	=59	=59	=59	=59	=59
4.C#/	(8e#/L	.	8g#/	któ-	ob-	.	.
.	8g#/)	.	8cc#\	-ra	-li-	.	.
.	8cc#'/J	.	8dd#\	cię	-cze	.	.
4.F##X\	(8c#/L	.	8een\	wa-	tyl-	.	.
.	8d#/)	.	8dd#\	-bi	-ko	.	.
.	8a#'/J	.	8cc#\	w te	wód	.	.
=60	=60	=60	=60	=60	=60	=60	=60
[4.G#\	8B#X/L	.	(4b#X\	knie-	mus-	.	.
.	8d#/	.	.	.	.	.	.
.	8g#/J	.	8dd#\)	.	.	.	.
8G#\L]	4G#/	.	4g#/	-je:	-kać,	.	.
8F#\	.	.	.	.	.	.	.
8D#\J	8r	.	8r	.	.	.	.
!!LO:LB:g=original
=61	=61	=61	=61	=61	=61	=61	=61
(8C#\L	(8g#/L 8e#/	>	8g#/	zaw-	czy	.	.
8c#\)	8f##X/ 8d##X/	.	8f##X/	-ra-	zdrów	.	.
(8C#\J	8g#/J 8e#/)	.	8g#/	-ca	jak	.	.
!LO:TX:t=P:problem=mixed beam	!	!	!	!	!	!	!
8c#\L)	(4b/ 4g#/	.	4b/	gło-	ryb-	.	.
(16C#/L	.	.	.	.	.	.	.
16BB#X/J	.	.	.	.	.	.	.
8C#/J)	8a#/ 8f##/)	.	8an/	-wę	-ka,	.	.
=62	=62	=62	=62	=62	=62	=62	=62
!LO:TX:t=P:problem=mixed beam	!	!	!	!	!	!	!
(8c#\L	(8g#/L 8e#/	]	8g#/	rzu-	we-	.	.
8C#/)	8f##X/ 8d##X/	.	8f##X/	-ca	-sół	.	.
(8c#\J	8g#/J 8e#/)	.	8g#/	w tęs-	jak	.	.
8C#/L)	4b/ 4g#/	.	4b/	-kni-	ryb-	.	.
(16c#\L	.	.	.	.	.	.	.
16B#X\J	.	.	.	.	.	.	.
8c#\J)	8a#/ 8f##/	.	8an/	-cy	-ka,	.	.
=63	=63	=63	=63	=63	=63	=63	=63
4C#/	4g#/ 4e#/	.	8g#/	i	ca-	.	.
.	.	.	8cc#\	mo-	-ły	.	.
8r	8r	.	8ee#X\	-że	dzień	.	.
4G#/ 4GG#/	4b#X/ 4f#/ 4d#/	.	8ff#\	jesz-	ze	.	.
.	.	.	8dd#\	-cze	mna	.	.
8r	8r	.	8b#X\	się	się	.	.
=64	=64	=64	=64	=64	=64	=64	=64
*	*^	*	*	*	*	*	*
(8BB/L	[>4.b/	(>8d#\L	>	[4.cc#\	śmie-	pluś-	.	.
8D#/	.	8f#\	.	.	.	.	.	.
8F#/J)	.	8a#\J)	]	.	.	.	.	.
4r	4b/]	4r	.	8cc#\L]	.	.	.	.
.	.	.	.	16cc##X\L	.	.	.	.
.	.	.	.	16dd#\	.	.	.	.
8r	8r	8r	.	(16dd##X\	-je	-kać.	.	.
.	.	.	.	16ee#\JJ)	.	.	.	.
*	*v	*v	*	*	*	*	*	*
=65:|!	=65:|!	=65:|!	=65:|!	=65:|!	=65:|!	=65:|!	=65:|!
*>C	*	*	*	*	*	*	*
2.ryy	2.ryy	.	8ff#\	A	.	.	.
.	.	.	8a#/	na	.	.	.
.	.	.	8cc#/	noc	.	.	.
.	.	.	4dd#/	w ło-	.	.	.
.	.	.	8cc#/	-żu	.	.	.
=66	=66	=66	=66	=66	=66	=66	=66
2.ryy	2.ryy	.	8ff#\	srebr-	.	.	.
.	.	.	8a#/	-nej	.	.	.
.	.	.	8cc#/	to-	.	.	.
.	.	.	4dd#/	-pie-	.	.	.
.	.	.	8cc#/	-li	.	.	.
!!LO:PB:g=original
=67	=67	=67	=67	=67	=67	=67	=67
2.ryy	2.ryy	.	8cc#/	pod	.	.	.
.	.	.	8b#X/	na-	.	.	.
.	.	.	8bn/	-mio-	.	.	.
.	.	.	8a#/	-ta-	.	.	.
.	.	.	8g#/	-mi	.	.	.
.	.	.	8f#/	zwier-	.	.	.
=68	=68	=68	=68	=68	=68	=68	=68
2.ryy	2.ryy	.	(4e#/	-cia-	.	.	.
.	.	.	8g#/)	.	.	.	.
.	.	.	4c#/	-deł,	.	.	.
.	.	.	8r	.	.	.	.
=69	=69	=69	=69	=69	=69	=69	=69
2.ryy	2.ryy	.	8ff#\	na	.	.	.
.	.	.	8a#/	mię-	.	.	.
.	.	.	8cc#/	-kiej	.	.	.
.	.	.	4dd#/	wo-	.	.	.
.	.	.	8cc#/	-dnych	.	.	.
=70	=70	=70	=70	=70	=70	=70	=70
2.ryy	2.ryy	.	8ff#\	li-	.	.	.
.	.	.	8a#/	-li-	.	.	.
.	.	.	8cc#/	-jek	.	.	.
.	.	.	4dd#/	bie-	.	.	.
.	.	.	8cc#/	-li	.	.	.
=71	=71	=71	=71	=71	=71	=71	=71
!	!	!	!LO:TX:a:t=ri-tar-dan-do	!	!	!	!
2.ryy	2.ryy	.	8cc#\	śród	.	.	.
.	.	.	8b#X\	bos-	.	.	.
.	.	.	8cc#\	-kich	.	.	.
.	.	.	8ff#\	u-	.	.	.
.	.	.	16ee#\LL	-snąć	.	.	.
.	.	.	16dd#\JJ	.	.	.	.
.	.	.	16cc#\LL	wi-	.	.	.
.	.	.	16bn\JJ	.	.	.	.
=72	=72	=72	=72	=72	=72	=72	=72
2.ryy	2.ryy	.	(4a#/	-dzia-	.	.	.
.	.	.	8g#/)	.	.	.	.
.	.	.	4f#/	-deł.	.	.	.
.	.	.	8r	.	.	.	.
=73||	=73||	=73||	=73||	=73||	=73||	=73||	=73||
(<[4.F#\ 4.BB\	(4.d#/ (4.B/	.	8f#/	Wtem	.	.	.
.	.	.	8f#/	z zas-	.	.	.
.	.	.	8f#/	-łon	.	.	.
4.F#\] 4.FF#\)	4.f#/ 4.c#/ 4.A#/))	.	4f#/	błys-	.	.	.
.	.	.	8f#/	-ną.	.	.	.
!!LO:LB:g=original
=74	=74	=74	=74	=74	=74	=74	=74
(<4.F#\ 4.BB\	(4.d#/ 4.B/	.	8f#/	pier-	.	.	.
.	.	.	8f#/	-si	.	.	.
.	.	.	8f#/	ła-	.	.	.
4.F#\ 4.FF#\)	4.f#/ 4.c#/ 4.A#/)	.	4f#/	-bę-	.	.	.
.	.	.	8f#/	-dzie,	.	.	.
=75	=75	=75	=75	=75	=75	=75	=75
(4.BB#X/	(>4.f#/ 4.d#/ 4.G##X/	.	8r	.	.	.	.
.	.	.	8f#/	strze-	.	.	.
.	.	.	8f#/	-lec	.	.	.
4.C#/	4.f#/ 4.c#/ 4.A#/	.	8a#/L	w zie-	.	.	.
.	.	.	8g#/J	.	.	.	.
.	.	.	8f#/	-mię	.	.	.
=76	=76	=76	=76	=76	=76	=76	=76
4.CC#/	4.g#/ 4.e#/ 4.B/	.	4cc#\	pa-	.	.	.
.	.	.	8b\	-trzy	.	.	.
4FF#/)	4.a#/ 4.f#/ 4.A#/)	.	4cc#\	skro-	.	.	.
8r	.	.	8a#\	-mnie,	.	.	.
=77	=77	=77	=77	=77	=77	=77	=77
*^	*	*	*	*	*	*	*
[2.F#/	(4.BB\	(4.d#/ 4.B/	.	8f#/	dzie-	.	.	.
.	.	.	.	8f#/	-wi-	.	.	.
.	.	.	.	8f#/	-ca	.	.	.
.	4.C#\	4.c#/ 4.A#/	.	4f#/	w lek-	.	.	.
.	.	.	.	8f#/	-kim	.	.	.
=78	=78	=78	=78	=78	=78	=78	=78	=78
2.F#/]	4.D#\	4.B#X/ 4.G##X/	.	8f#/	zbli-	.	.	.
.	.	.	.	8f#/	-ża	.	.	.
.	.	.	.	8f#/	się	.	.	.
.	4.C#\)	4.c#/ 4.A#/)	.	4f#/	pę-	.	.	.
.	.	.	.	8f#/	-dzie,	.	.	.
*v	*v	*	*	*	*	*	*	*
=79	=79	=79	=79	=79	=79	=79	=79
*	*^	*	*	*	*	*	*
4.F#\ 4.BB\	4.ryy	4.d#/ 4.B/	sf	8ff#\	i,	.	.	.
.	.	.	.	16ee#\LL	do	.	.	.
.	.	.	.	16dd#\JJ	.	.	.	.
.	.	.	.	16cc#\LL	mnie,	.	.	.
.	.	.	.	16b\JJ	.	.	.	.
4.F#\ 4.C#\	8a#/L	4.c#\ 4.A#\	.	8a#/	wo-	.	.	.
.	8g#/	.	.	8g#/	-ła,	.	.	.
.	8f#/J	.	.	8f#/	pojdź	.	.	.
*	*v	*v	*	*	*	*	*	*
=80	=80	=80	=80	=80	=80	=80	=80
2.C#/ 2.CC#;/	2.e#/ 2.B/ 2.G#;/	sf	[4.cc#;\	do	.	.	.
!	!	!	!LO:TX:a:t=ad libit&colon;	!	!	!	!
.	.	.	8cc#\L]	.	.	.	.
.	.	.	8ddn\	.	.	.	.
.	.	.	8cc#\J	.	.	.	.
!!LO:LB:g=original
=81	=81	=81	=81	=81	=81	=81	=81
!	!LO:TX:b:t=e staccato	!	!	!	!	!	!
*tremolo	*tremolo	*	*	*	*	*	*
8C#/L 8FF#/	8f#/L 8c#/ 8A#/	pp	4f#/	mnie.	.	.	.
8C#/ 8FF#/	8f#/ 8c#/ 8A#/	.	.	.	.	.	.
8C#/ 8FF#/	8f#/ 8c#/ 8A#/	.	8r	.	.	.	.
8C#/ 8FF#/	8f#/ 8c#/ 8A#/	.	4r	.	.	.	.
8C#/ 8FF#/	8f#/ 8c#/ 8A#/	.	.	.	.	.	.
8C#/J 8FF#/	8f#/J 8c#/ 8A#/	.	8r	.	.	.	.
=82	=82	=82	=82	=82	=82	=82	=82
8C#/L 8FF#/	8e#/L 8B/ 8G#/	.	8cc#\	I	.	.	.
8C#/ 8FF#/	8e#/ 8B/ 8G#/	.	8cc#\	na	.	.	.
8C#/ 8FF#/	8e#/ 8B/ 8G#/	.	8cc#\	wiatr	.	.	.
8C#/ 8FF#/	8e#/ 8B/ 8G#/	.	4cc#\	lot-	.	.	.
8C#/ 8FF#/	8e#/ 8B/ 8G#/	.	.	.	.	.	.
8C#/J 8FF#/	8e#/J 8B/ 8G#/	.	8cc#\	-ne	.	.	.
=83	=83	=83	=83	=83	=83	=83	=83
8C#/L 8FF#/	8f#/L 8An/	.	8cc#\	rzu-	.	.	.
8C#/ 8FF#/	8f#/ 8A/	.	8b#X\	-ciw-	.	.	.
8C#/ 8FF#/	8f#/ 8A/	.	8cc#\	-szy	.	.	.
8C#/ 8FF#/	8f#/ 8A/	.	4ff#\	sto-	.	.	.
8C#/ 8FF#/	8f#/ 8A/	.	.	.	.	.	.
8C#/J 8FF#/	8f#/J 8A/	.	8an/	-py	.	.	.
=84	=84	=84	=84	=84	=84	=84	=84
8C#/L 8FF#/	8e#/L 8B/	.	8cc#\	jak	.	.	.
8C#/ 8FF#/	8e#/ 8B/	.	8b\	tę-	.	.	.
8C#/ 8FF#/	8e#/ 8B/	.	8g#\	-cza	.	.	.
8C#/ 8FF#/	8e#/ 8B/	.	8cc#\	śmi-	.	.	.
8C#/ 8FF#/	8e#/ 8B/	.	8b\	-ga	.	.	.
8C#/J 8FF#/	8e#/J 8B/	.	8g#\	w krąg	.	.	.
=85	=85	=85	=85	=85	=85	=85	=85
8C#/L 8FF#/	8f#/L 8An/	.	4.f#/	wiel-	.	.	.
8C#/ 8FF#/	8f#/ 8A/	.	.	.	.	.	.
8C#/ 8FF#/	8f#/ 8A/	.	.	.	.	.	.
8C#/ 8FF#/	8f#/ 8A/	.	4an/	-ki,	.	.	.
8C#/ 8FF#/	8f#/ 8A/	.	.	.	.	.	.
8C#/J 8FF#/	8f#/J 8A/	.	8r	.	.	.	.
=86	=86	=86	=86	=86	=86	=86	=86
8C#/L 8FF#/	8e#/L 8B/ 8G#/	.	8cc#\	to	.	.	.
8C#/ 8FF#/	8e#/ 8B/ 8G#/	.	8cc#\	zno-	.	.	.
8C#/ 8FF#/	8e#/ 8B/ 8G#/	.	8cc#\	-wu	.	.	.
8C#/ 8FF#/	8e#/ 8B/ 8G#/	.	4ddn\	sie-	.	.	.
8C#/ 8FF#/	8e#/ 8B/ 8G#/	.	.	.	.	.	.
8C#/J 8FF#/	8e#/J 8B/ 8G#/	.	8cc#\	-kąc	.	.	.
=87	=87	=87	=87	=87	=87	=87	=87
8C#/L 8FF#/	8f#/L 8An/	.	8cc#\	wo-	.	.	.
8C#/ 8FF#/	8f#/ 8A/	.	8b#X\	-dne	.	.	.
8C#/ 8FF#/	8f#/ 8A/	.	8cc#\	za-	.	.	.
8C#/ 8FF#/	8f#/ 8A/	.	4ff#\	-to-	.	.	.
8C#/ 8FF#/	8f#/ 8A/	.	.	.	.	.	.
8C#/J 8FF#/	8f#/J 8A/	.	8an/	-py	.	.	.
*Xtremolo	*Xtremolo	*	*	*	*	*	*
!!LO:PB:g=original
=88	=88	=88	=88	=88	=88	=88	=88
4BB/	4g#/ 4dn/ 4B/	.	8g#/	srebr-	.	.	.
.	.	.	8an/	-ne-	.	.	.
8r	8r	.	8b/	-mi	.	.	.
4C#/	4e#/ 4B/ 4G#/	.	8b/	pry-	.	.	.
.	.	.	8a/	-ska	.	.	.
8r	8r	.	8g#/	kro-	.	.	.
=89	=89	=89	=89	=89	=89	=89	=89
!LO:TX:t=P:problem=mixed beam	!	!	!	!	!	!	!
.	.	.	8qg#/	.	.	.	.
*	*^	*	*	*	*	*	*
!	!	!	!LO:TX:t=cres_:problem=dynamics with extention lines	!	!	!	!	!
8FF#'/L	8f#'/L	4.ryy	<	8f#/	-pel-	.	.	.
8F#'\	8An'/	.	.	8f#/	-ki.	.	.	.
8C#'\J	8c#'/J	.	.	8r	.	.	.	.
!LO:TX:t=P:problem=mixed beam	!	!	!	!	!	!	!	!
8EE#'/L	(<4dn/	4.B^\	.	4r	.	.	.	.
8G#'\	.	.	.	.	.	.	.	.
8C#'\J	8c#/)	.	.	8r	.	.	.	.
=90	=90	=90	=90	=90	=90	=90	=90	=90
!LO:TX:t=P:problem=mixed beam	!	!	!	!	!	!	!	!
8FF#\L	8f#'/L	4.ryy	.	8c#/	Bod-	.	.	.
8F#\	8An'/	.	.	8c#/	-bie-	.	.	.
8C#\J	8c#'/J	.	.	8c#/	-ga	.	.	.
!LO:TX:t=P:problem=mixed beam	!	!	!	!	!	!	!	!
8EE#/L	(<4dn/	4.B^\	.	4c#/	strze-	.	.	.
8G#\	.	.	.	.	.	.	.	.
8C#\J	8c#/)	.	.	8c#/	-lec	.	.	.
=91	=91	=91	=91	=91	=91	=91	=91	=91
!LO:TX:t=P:problem=mixed beam	!	!	!	!	!	!	!	!
8FF#/L	8f#/L	4.ryy	.	8c#/	i	.	.	.
8F#\	8A#/	.	.	8c#/	sta-	.	.	.
8C#\J	8c#/J	.	.	8c#/	-ie	.	.	.
!LO:TX:t=P:problem=mixed beam	!	!	!	!	!	!	!	!
8EE#/L	(<4dn/	4.B^\	.	4c#/	w bie-	.	.	.
8G#\	.	.	.	.	.	.	.	.
8C#\J	8c#/)	.	.	8c#/	-gu,	.	.	.
*	*v	*v	*	*	*	*	*	*
=92	=92	=92	=92	=92	=92	=92	=92
*	*tremolo	*	*	*	*	*	*
!LO:TX:t=P:problem=mixed beam	!	!	!	!	!	!	!
8FF#/L	8f#/L 8c#/ 8An/	.	8c#/	i	.	.	.
8F#\	8f#/ 8c#/ 8A/	.	8f#/	chciał-	.	.	.
8C#\J	8f#/J 8c#/ 8A/	.	8f#/	-by	.	.	.
8E#\L	8g#X/L 8dn/ 8B/	.	8en/	sko-	.	.	.
8E#\	8g#X/ 8d/ 8B/	.	8f#/	-czyc,	.	.	.
8E#\J	8g#X/J 8d/ 8B/	.	8g#/	i	.	.	.
*	*Xtremolo	*	*	*	*	*	*
=93	=93	=93	=93	=93	=93	=93	=93
*	*^	*	*	*	*	*	*
!LO:TX:t=P:problem=mixed beam	!	!	!	!	!	!	!	!
8AAn\L	8an/L 8c#/	4.ryy	.	4.a#/	nie	.	.	.
8An\	8c#/	.	.	.	.	.	.	.
8En\J	8en/J	.	.	.	.	.	.	.
!LO:TX:t=P:problem=mixed beam	!	!	!	!	!	!	!	!
8GG#\L	(<4fn/	4.dn^\	.	4e#/	chce;	.	.	.
8B\	.	.	.	.	.	.	.	.
8E\J	8e/)	.	.	8r	.	.	.	.
=94	=94	=94	=94	=94	=94	=94	=94	=94
!LO:TX:t=P:problem=mixed beam	!	!	!	!	!	!	!	!
8AAn\L	8an/L	4.ryy	.	8en/	wtem	.	.	.
8An\	8c#/	.	.	8e/	mod-	.	.	.
8En\J	8en/J	.	.	8e/	-ra	.	.	.
!LO:TX:t=P:problem=mixed beam	!	!	!	!	!	!	!	!
8GG#\L	(<4fn/	4.dn^\	.	4e/	fa-	.	.	.
8B\	.	.	.	.	.	.	.	.
8E\J	8e/)	.	.	8e/	-la,	.	.	.
=95	=95	=95	=95	=95	=95	=95	=95	=95
!LO:TX:t=P:problem=mixed beam	!	!	!	!	!	!	!	!
8AAnyy\L	8an/Lyy	4.ryy	.	8en/	prys-	.	.	.
8An\yy	8c#/yy	.	.	8e/	-nąw-	.	.	.
8En\Jyy	8en/Jyy	.	.	8e/	-szy	.	.	.
!LO:TX:t=P:problem=mixed beam	!	!	!	!	!	!	!	!
8GG#\Lyy	(4fn/yy	4.dn^/yy	.	4e/	z brze-	.	.	.
8B\yy	.	.	.	.	.	.	.	.
8E\Jyy	8e/)yy	.	.	8e/	-gu,	.	.	.
*	*v	*v	*	*	*	*	*	*
!!LO:LB:g=original
=96	=96	=96	=96	=96	=96	=96	=96
*	*tremolo	*	*	*	*	*	*
!LO:TX:t=P:problem=mixed beam	!	!	!	!	!	!	!
8AAn\L	8an/L 8en/ 8c#/	[	8ccn\	z lek-	.	.	.
8An\	8a/ 8e/ 8c#/	<	8b\	-ka	.	.	.
8A\J	8a/J 8e/ 8c#/	.	8an\	mu	.	.	.
*tremolo	*	*	*	*	*	*	*
8Gn\L	8b/L 8fn/ 8dn/	.	8gn\	w sto-	.	.	.
8G\	8b/ 8f/ 8d/	.	8g\	-py	.	.	.
8G\J	8b/J 8f/ 8d/	[	8g\	za-	.	.	.
=97	=97	=97	=97	=97	=97	=97	=97
8Gn\L 8Cn\	8ccn/L 8en/	fp	4.gn\	-łe-	.	.	.
!	!LO:TX:b:t=stacc&colon;	!	!	!	!	!	!
8G\ 8C\	8cc/ 8e/	.	.	.	.	.	.
8G\ 8C\	8cc/ 8e/	.	.	.	.	.	.
8G\ 8C\	8cc/ 8e/	.	4cn/	-chce.	.	.	.
8G\ 8C\	8cc/ 8e/	.	.	.	.	.	.
8G\J 8C\	8cc/J 8e/	.	8r	.	.	.	.
=98	=98	=98	=98	=98	=98	=98	=98
8Gn\L 8Cn\	8b/L 8fn/ 8dn/	.	8gn/	I	.	.	.
8G\ 8C\	8b/ 8f/ 8d/	.	8g/	tak	.	.	.
8G\ 8C\	8b/ 8f/ 8d/	.	8g/	go	.	.	.
8G\ 8C\	8b/ 8f/ 8d/	.	4g/	łech-	.	.	.
8G\ 8C\	8b/ 8f/ 8d/	.	.	.	.	.	.
8G\J 8C\	8b/J 8f/ 8d/	.	8g/	-ce	.	.	.
=99	=99	=99	=99	=99	=99	=99	=99
8Gn\L 8Cn\	8ccn/L 8e#/	.	8gn/	i	.	.	.
8G\ 8C\	8cc/ 8e#/	.	8g/	tak	.	.	.
8G\ 8C\	8cc/ 8e#/	.	8g/	go	.	.	.
8G\ 8C\	8cc/ 8e#/	.	4ccn\	znę-	.	.	.
8G\ 8C\	8cc/ 8e#/	.	.	.	.	.	.
8G\J 8C\	8cc/J 8e#/	.	8en/	-ca,	.	.	.
=100	=100	=100	=100	=100	=100	=100	=100
8Gn\L 8Cn\	8b/L 8fn/	.	8gn/	tak	.	.	.
8G\ 8C\	8b/ 8f/	.	8fn/	się	.	.	.
8G\ 8C\	8b/ 8f/	.	8dn/	w nim	.	.	.
8G\ 8C\	8b/ 8f/	.	8g/	ser-	.	.	.
8G\ 8C\	8b/ 8f/	.	8f/	-ce	.	.	.
8G\J 8C\	8b/J 8f/	.	8d/	ros-	.	.	.
=101	=101	=101	=101	=101	=101	=101	=101
8Gn\L 8Cn\	8ccn/L 8e#/	.	4.cn/	-pły-	.	.	.
8G\ 8C\	8cc/ 8e#/	.	.	.	.	.	.
8G\ 8C\	8cc/ 8e#/	.	.	.	.	.	.
8G\ 8C\	8cc/ 8e#/	.	4e#/	-wa;	.	.	.
8G\ 8C\	8cc/ 8e#/	.	.	.	.	.	.
8G\J 8C\	8cc/J 8e#/	.	8r	.	.	.	.
=102	=102	=102	=102	=102	=102	=102	=102
8Gn\L 8Cn\	8b/L 8fn/ 8dn/	.	8gn/	jak	.	.	.
8G\ 8C\	8b/ 8f/ 8d/	.	8g/	gdy	.	.	.
8G\ 8C\	8b/ 8f/ 8d/	.	8g/	ta-	.	.	.
8G\ 8C\	8b/ 8f/ 8d/	.	4a#/	-iem-	.	.	.
8G\ 8C\	8b/ 8f/ 8d/	.	.	.	.	.	.
8G\J 8C\	8b/J 8f/ 8d/	.	8g/	-nie	.	.	.
=103	=103	=103	=103	=103	=103	=103	=103
8Gn\L 8Cn\	8ccn/L 8en/	.	8gn/	rę-	.	.	.
8G\ 8C\	8cc/ 8e/	.	8f#/	-kę	.	.	.
8G\ 8C\	8cc/ 8e/	.	8g/	mło-	.	.	.
8G\ 8C\	8cc/ 8e/	.	4ccn\	-dzień-	.	.	.
8G\ 8C\	8cc/ 8e/	.	.	.	.	.	.
8G\J 8C\	8cc/J 8e/	.	8e#/	-ca	.	.	.
*	*Xtremolo	*	*	*	*	*	*
=104	=104	=104	=104	=104	=104	=104	=104
4Gn\	4b/ 4fn/ 4dn/	.	8gn/	scis-	.	.	.
.	.	.	8fn/	-nie	.	.	.
8r	8r	.	8dn/	ko-	.	.	.
4GGny/	4b/ 4f/ 4d/	.	8g/	-chan-	.	.	.
.	.	.	8f/	-ka	.	.	.
8r	8r	.	8d/	wstyd-	.	.	.
!!LO:LB:g=original
=105	=105	=105	=105	=105	=105	=105	=105
*	*^	*	*	*	*	*	*
8Cn'\L	8ccn'/L	4.ryy	.	4en/	-li-	.	.	.
8cn'\	8en'/	.	.	.	.	.	.	.
8Gn'\J	8gn'/J	.	.	8cn/	-wa.	.	.	.
8BB'\L	4a-X/	4.f#^\	.	4r	.	.	.	.
8d#'\	.	.	.	.	.	.	.	.
8G'\J	8g/	.	.	8r	.	.	.	.
=106	=106	=106	=106	=106	=106	=106	=106	=106
8Cn'\Lyy	8ccn'/Lyy	4.ryy	.	8gn/	Za-	.	.	.
8cn'\yy	8en'/yy	.	.	8g/	-pom-	.	.	.
8Gn'\Jyy	8gn'/Jyy	.	.	8g/	-niał	.	.	.
8BB'\Lyy	4a-X/yy	4.f#^/yy	.	4g/	strze-	.	.	.
8d#'\yy	.	.	.	.	.	.	.	.
8G'\Jyy	8g/yy	.	.	8g/	-lec	.	.	.
=107	=107	=107	=107	=107	=107	=107	=107	=107
8Cn'\Lyy	8ccn'/Lyy	4.ryy	.	8gn/	o	.	.	.
8cn'\yy	8en'/yy	.	.	8g/	swej	.	.	.
8Gn'\Jyy	8gn'/Jyy	.	.	8g/	dziew-	.	.	.
8BB'\Lyy	4a-X/yy	4.f#^/yy	.	4g/	-czy-	.	.	.
8d#'\yy	.	.	.	.	.	.	.	.
8G'\Jyy	8g/yy	.	.	8g/	-nie,	.	.	.
*	*v	*v	*	*	*	*	*	*
=108	=108	=108	=108	=108	=108	=108	=108
*Xtremolo	*tremolo	*	*	*	*	*	*
8Cn\L	8ccn/L 8gn/ 8en/	<	8gn/	przy-	.	.	.
8cn\	8cc/ 8g/ 8e/	.	8ccn\	-się-	.	.	.
8c\J	8cc/J 8g/ 8e/	.	8cc\	-gą	.	.	.
*tremolo	*	*	*	*	*	*	*
8A-X\L	8cc/L 8g-X/ 8e-X/	.	8cc\	po-	.	.	.
8A-\	8cc/ 8g-/ 8e-/	.	8b-X\	-gar-	.	.	.
8A-\J	8cc/J 8g-/ 8e-/	[	8cc\	-dził	.	.	.
*Xtremolo	*Xtremolo	*	*	*	*	*	*
=109	=109	=109	=109	=109	=109	=109	=109
*	*^	*	*	*	*	*	*
8D-X'\L	8dd-X'/L	4.ryy	.	4.dd-X\	świę-	.	.	.
8d-X'\	8fn'/	.	.	.	.	.	.	.
8A-X'\J	8a-X'/J	.	.	.	.	.	.	.
8Cn\L	(4b--/	4.g-X^\	.	4a-X/	-tą,	.	.	.
8e-X\	.	.	.	.	.	.	.	.
8A-\J	8a-/)	.	.	8r	.	.	.	.
=110	=110	=110	=110	=110	=110	=110	=110	=110
8D-X'\Lyy	8dd-X'/Lyy	4.ryy	.	8a-X/	na	.	.	.
8d-X'\yy	8fn'/yy	.	.	8a-/	zgu-	.	.	.
8A-X'\Jyy	8a-X'/Jyy	.	.	8a-/	-bę	.	.	.
8Cn\Lyy	(4b--/yy	4.g-X^/yy	.	4b--/	oś-	.	.	.
8e-X\yy	.	.	.	.	.	.	.	.
8A-\Jyy	8a-/)yy	.	.	8a-/	-lep	.	.	.
=111	=111	=111	=111	=111	=111	=111	=111	=111
8D-X'\Lyy	8dd-X'/Lyy	4.ryy	.	8a-X/	bie-	.	.	.
8d-X'\yy	8fn'/yy	.	.	8a-/	-ży	.	.	.
8A-X'\Jyy	8a-X'/Jyy	.	.	8a-/	w głę-	.	.	.
8Cn\Lyy	(4b--/yy	4.g-X^/yy	.	4b--/	-bi-	.	.	.
8e-X\yy	.	.	.	.	.	.	.	.
8A-\Jyy	8a-/)yy	.	.	8a-/	-nie	.	.	.
*	*v	*v	*	*	*	*	*	*
=112	=112	=112	=112	=112	=112	=112	=112
*	*tremolo	*	*	*	*	*	*
8D-X\L	8dd-X/L 8a-X/ 8fn/	<	8a-X/	no-	.	.	.
8d-X\	8dd-/ 8a-/ 8f/	.	8dd-X\	-wą	.	.	.
8d-\J	8dd-/J 8a-/ 8f/	.	8dd-\	zwa-	.	.	.
*tremolo	*	*	*	*	*	*	*
8An\L	8cc#X/L 8gn/ 8en/	[	8cc#X\	-bio-	.	.	.
8A\	8cc#/ 8g/ 8e/	.	8b\	-ny	.	.	.
8A\J	8cc#/J 8g/ 8e/	.	8cc#\	po-	.	.	.
*Xtremolo	*Xtremolo	*	*	*	*	*	*
=113	=113	=113	=113	=113	=113	=113	=113
*	*^	*	*	*	*	*	*
8En'\L	8ddn'/L	4.ryy	.	4.ddn\	-nę-	.	.	.
8d#'\	8f#'/	.	.	.	.	.	.	.
8An'\J	8an'/J	.	.	.	.	.	.	.
8C#'\L	(4b/	4.gn^\	.	4a#/	-tą.	.	.	.
8e#'\	.	.	.	.	.	.	.	.
8A'\J	8a/)	.	.	8r	.	.	.	.
=114	=114	=114	=114	=114	=114	=114	=114	=114
8En'\Lyy	8ddn'/Lyy	4.ryy	.	8a#/	Bie-	.	.	.
8d#'\yy	8f#'/yy	.	.	8a#/	-ży	.	.	.
8An'\Jyy	8an'/Jyy	.	.	8a#/	i	.	.	.
8C#'\Lyy	(4b/yy	4.gn/yy	.	4a#/	pat-	.	.	.
8e#'\yy	.	.	.	.	.	.	.	.
8A'\Jyy	8a/)yy	.	.	8a#/	-rzy	.	.	.
!!LO:PB:g=original
=115	=115	=115	=115	=115	=115	=115	=115	=115
8En'\L	8ddn'/L	4.ryy	.	8ddn\	pat-	.	.	.
8d#'\	8f#'/	.	.	8an\	-rzy	.	.	.
8An'\J	8an'/J	.	.	8a\	i	.	.	.
8C#'\L	(4b/	4.gn^\	.	4b\	bie-	.	.	.
8e#'\	.	.	.	.	.	.	.	.
8A'\J	8a/)	.	.	8a\	-ży	.	.	.
*	*v	*v	*	*	*	*	*	*
=116	=116	=116	=116	=116	=116	=116	=116
*	*tremolo	*	*	*	*	*	*
8Dn\L	8ddn/L 8an/ 8f#/	.	8an\	nie-	.	.	.
8dn\	8dd/ 8a/ 8f#/	.	8ddn\	-sie	.	.	.
8d\J	8dd/J 8a/ 8f#/	.	8dd\	go	.	.	.
*tremolo	*	*	*	*	*	*	*
8B-X\L	8dd/L 8a-X/ 8fn/	.	8dd\	wod-	.	.	.
8B-\	8dd/ 8a-/ 8f/	.	8ccn\	-ne	.	.	.
8B-\J	8dd/J 8a-/ 8f/	.	8b-X\	przes-	.	.	.
*Xtremolo	*Xtremolo	*	*	*	*	*	*
=117	=117	=117	=117	=117	=117	=117	=117
*	*^	*	*	*	*	*	*
8E-X'\L	8ee-X'/L	4.ryy	.	4.ee-X\	-two-	.	.	.
8e#'\	8gn'/	.	.	.	.	.	.	.
8B-X'\J	8b-X'/J	.	.	.	.	.	.	.
8Dn'\L	(4cc-X/	4.a-X^\	.	4b-X\	-rze,	.	.	.
8fn'\	.	.	.	.	.	.	.	.
8Bn'\J	8b-/)	.	.	8r	.	.	.	.
=118	=118	=118	=118	=118	=118	=118	=118	=118
8E-X'\Lyy	8ee-X'/Lyy	4.ryy	.	8b-X\	już	.	.	.
8e#'\yy	8gn'/yy	.	.	8b-\	zda-	.	.	.
8B-X'\Jyy	8b-X'/Jyy	.	.	8b-\	-la	.	.	.
8Dn'\Lyy	(4cc-X/yy	4.a-X/yy	.	4b-\	su-	.	.	.
8fn'\yy	.	.	.	.	.	.	.	.
8Bn'\Jyy	8b-/)yy	.	.	8b-\	-chych	.	.	.
=119	=119	=119	=119	=119	=119	=119	=119	=119
8E-X'\Lyy	8ee-X'/Lyy	4.ryy	.	8b-X\	od-	.	.	.
8e#'\yy	8gn'/yy	.	.	8b-\	-biegł	.	.	.
8B-X'\Jyy	8b-X'/Jyy	.	.	8b-\	wy-	.	.	.
8Dn'\Lyy	(4cc-X/yy	4.a-X/yy	.	4b-\	-brze-	.	.	.
8fn'\yy	.	.	.	.	.	.	.	.
8Bn'\Jyy	8b-/)yy	.	.	8b-\	-ży	.	.	.
*	*v	*v	*	*	*	*	*	*
=120	=120	=120	=120	=120	=120	=120	=120
*	*tremolo	*	*	*	*	*	*
8E-X\L	8ee-X/L 8b-X/ 8gn/	.	8b-X\	na	.	.	.
8e#\	8ee-/ 8b-/ 8g/	.	8ee-X\	śred-	.	.	.
8e#\J	8ee-/J 8b-/ 8g/	.	8ee-\	-niem	.	.	.
*tremolo	*	*	*	*	*	*	*
8Bn\L	8dd#X/L 8an/ 8f#/	.	8ddn\	ig-	.	.	.
8B\	8dd#/ 8a/ 8f#/	.	8cc#\	-ra	.	.	.
8B\J	8dd#/J 8a/ 8f#/	.	8dd\	je-	.	.	.
=121	=121	=121	=121	=121	=121	=121	=121
8Bn\L 8En\	8een/L 8g#/	.	4.ee#\	-zio-	.	.	.
8B\ 8E\	8ee/ 8g#/	.	.	.	.	.	.
8B\ 8E\	8ee/ 8g#/	.	.	.	.	.	.
8B\ 8E\	8ee/ 8g#/	.	4b\	-rze.	.	.	.
8B\ 8E\	8ee/ 8g#/	.	.	.	.	.	.
8B\J 8E\	8ee/J 8g#/	.	8r	.	.	.	.
=122!|:	=122!|:	=122!|:	=122!|:	=122!|:	=122!|:	=122!|:	=122!|:
*>D	*	*	*	*	*	*	*
8B\L 8En\	8dd#/L 8an/ 8f#/	.	8b\	już	U-	.	.
8B\ 8E\	8dd#/ 8a/ 8f#/	.	8b\	dłoń	-sta-	.	.
8B\ 8E\	8dd#/ 8a/ 8f#/	.	8b\	snież-	-mi	.	.
8B\ 8E\	8dd#/ 8a/ 8f#/	.	4cc#\	-ną	us-	.	.
8B\ 8E\	8dd#/ 8a/ 8f#/	.	.	.	.	.	.
8B\J 8E\	8dd#/J 8a/ 8f#/	.	8b\	w	-ta	.	.
=123	=123	=123	=123	=123	=123	=123	=123
2.ryy	8een/L 8g#/	.	8b\	swej	ró-	.	.
.	8ee/ 8g#/	.	8a#X\	ciś-	-żan-	.	.
.	8ee/ 8g#/	.	8b\	-nie	-ne	.	.
.	8ee/ 8g#/	.	4ee#\	dło-	go-	.	.
.	8ee/ 8g#/	.	.	.	.	.	.
.	8ee/J 8g#/	.	8g#\	-ni	-ni	.	.
=124	=124	=124	=124	=124	=124	=124	=124
2.ryy	8dd#/L 8an/	.	8b\	w pięk-	i	.	.
.	8dd#/ 8a/	.	8an\	-nych	skocz-	.	.
.	8dd#/ 8a/	.	8f#/	li-	-ne	.	.
.	8dd#/ 8a/	.	8b\	-cach	ok-	.	.
.	8dd#/ 8a/	.	8a\	to-	-rę-	.	.
.	8dd#/J 8a/	.	8f#/	-pi	-gi	.	.
=125	=125	=125	=125	=125	=125	=125	=125
2.ryy	8een/L 8g#/	.	(4en/	o-	to-	.	.
.	8ee/ 8g#/	.	.	.	.	.	.
.	8ee/ 8g#/	.	8g#/)	.	.	.	.
.	8ee/ 8g#/	.	4b/	-czy	-czy	.	.
.	8ee/ 8g#/	.	.	.	.	.	.
.	8ee/J 8g#/	.	8r	.	.	.	.
*Xtremolo	*Xtremolo	*	*	*	*	*	*
=126:|!	=126:|!	=126:|!	=126:|!	=126:|!	=126:|!	=126:|!	=126:|!
*>E	*	*	*	*	*	*	*
*Xtremolo	*Xtremolo	*	*	*	*	*	*
16C#\LL	16ee#/LL	.	8e#/	w tem	.	.	.
16B\	16gn/	.	.	.	.	.	.
16C#\	16ee#/	.	8e#/	wiet-	.	.	.
16B\	16g/	.	.	.	.	.	.
16C#\	16ee#/	.	8e#/	-rzyk	.	.	.
16B\JJ	16g/JJ	.	.	.	.	.	.
*tremolo	*tremolo	*	*	*	*	*	*
16An\LL 16Cn\	8ee-X/L 8f#/	.	4e-X/	świs-	.	.	.
16A\ 16C\	.	.	.	.	.	.	.
16A\ 16C\	8ee-/ 8f#/	.	.	.	.	.	.
16A\ 16C\	.	.	.	.	.	.	.
16A\ 16C\	8ee-/J 8f#/	.	8e-/	-nął,	.	.	.
16A\JJ 16C\	.	.	.	.	.	.	.
=127	=127	=127	=127	=127	=127	=127	=127
*Xtremolo	*Xtremolo	*	*	*	*	*	*
16BB\LL	16ddn/LL	.	8dn/	ob-	.	.	.
16A-X\	16fn/	.	.	.	.	.	.
16BB\	16dd/	.	8d/	-ło-	.	.	.
16A-\	16f/	.	.	.	.	.	.
16BB\	16dd/	.	8d/	-czek	.	.	.
16A-\JJ	16f/JJ	.	.	.	.	.	.
*tremolo	*tremolo	*	*	*	*	*	*
16Gn\LL 16AA#X\	8cc#/L 8en/	.	4c#/	prys-	.	.	.
16G\ 16AA#\	.	.	.	.	.	.	.
16G\ 16AA#\	8cc#/ 8e/	.	.	.	.	.	.
16G\ 16AA#\	.	.	.	.	.	.	.
16G\ 16AA#\	8cc#/J 8e/	.	8c#/	-ka,	.	.	.
16G\JJ 16AA#\	.	.	.	.	.	.	.
*Xtremolo	*Xtremolo	*	*	*	*	*	*
!!LO:LB:g=original
=128	=128	=128	=128	=128	=128	=128	=128
16AAn\LL	16ccn/LL	.	8cn/	co	.	.	.
16F#X\	16e-X/	.	.	.	.	.	.
16AA\	16cc/	.	8c/	ją	.	.	.
16F#\	16e-/	.	.	.	.	.	.
16AA\	16cc/	.	8c/	w łu-	.	.	.
16F#\JJ	16e-/JJ	.	.	.	.	.	.
8AA-X\L	8cc/L	.	8c/	-dzą-	.	.	.
8F#\ 8AA-\	8cc/ 8e-/	.	8c/	-cym	.	.	.
8F#\J 8AA-\	8cc/J 8e-/	.	8c/	krył	.	.	.
=129	=129	=129	=129	=129	=129	=129	=129
16AA-X\LL	16ccn/LL	.	4.e-X/	blas-	.	.	.
16F#X\	16e-X/	.	.	.	.	.	.
16AA-\	16cc/	.	.	.	.	.	.
16F#\	16e-/	.	.	.	.	.	.
16AA-\	16cc/	.	.	.	.	.	.
16F#\JJ	16e-/JJ	.	.	.	.	.	.
8AA-\L	8ccn/L	.	4cn/	-ku	.	.	.
8F#\ 8AA-\	8cc/ 8e-/	.	.	.	.	.	.
8F#\J 8AA-\	8cc/J 8e-/	.	8r	.	.	.	.
=130	=130	=130	=130	=130	=130	=130	=130
4.Gn\ 4.C#\ 4.GG#\	[2.ee-X\ [2.ccn\ [2.gn\	fp	2.r	.	.	.	.
(4E-X\	.	.	.	.	.	.	.
8Dn\)	.	.	.	.	.	.	.
=131	=131	=131	=131	=131	=131	=131	=131
4.Cn\	2.ee-\_ 2.cc\_ 2.g\_	.	2.r	.	.	.	.
(4Gn\	.	.	.	.	.	.	.
8E-X\)	.	.	.	.	.	.	.
=132	=132	=132	=132	=132	=132	=132	=132
4cn\	2.ee-\] 2.cc\] 2.g\]	.	2.r	.	.	.	.
8Gn\	.	.	.	.	.	.	.
8e-X\L	.	.	.	.	.	.	.
8cn\	.	.	.	.	.	.	.
8B-X\J	.	.	.	.	.	.	.
=133	=133	=133	=133	=133	=133	=133	=133
!	!	!	!LO:TX:i:a:t=molto accelerando	!	!	!	!
4A-X\	4ee-X/ 4cc#/ 4f#X/	sf	4r	.	.	.	.
8r	8r	.	8r	.	.	.	.
!	!LO:TX:b:t=[colla parta]	!	!	!	!	!	!
4r	4r	.	8e-X/	poz-	.	.	.
.	.	.	8e-/	-na-	.	.	.
8r	8r	.	8fn/	-je	.	.	.
=134	=134	=134	=134	=134	=134	=134	=134
2.r	2.r	.	4gn/	strze-	.	.	.
.	.	.	8g/	-lec	.	.	.
.	.	.	8g/	dzie-	.	.	.
.	.	.	8g/	-wi-	.	.	.
.	.	.	8an/	-cę	.	.	.
=135	=135	=135	=135	=135	=135	=135	=135
2.r	2.r	.	8ccn\	z blis-	.	.	.
.	.	.	8b-X\	-ka;	.	.	.
.	.	.	8r	.	.	.	.
.	.	.	[4.b-X;\	ach!	.	.	.
=136	=136	=136	=136	=136	=136	=136	=136
!	!	!	!LO:TX:i:a:t=ritartando	!	!	!	!
2.r	2.r	.	8b-\]	.	.	.	.
.	.	.	8b-X\	to	.	.	.
.	.	.	8b-\	dziew-	.	.	.
.	.	.	8b-\	-czy-	.	.	.
.	.	.	8a#\	-na	.	.	.
.	.	.	8g#\	spod	.	.	.
=137	=137	=137	=137	=137	=137	=137	=137
!	!	!LO:DY:rj	!	!	!	!	!
[4.GG#/ [4.DD#/ [4.BBB/ [4.GGG#;/	[4.ggn\ [4.ddn\ [4.b\ [4.g#;\	ff	4.gg#;\	las-	.	.	.
4GG#/] 4DD#/] 4BBB/] 4GGG#/]	4gg\] 4dd\] 4b\] 4g#\]	.	4g#/	-ku!	.	.	.
!	!LO:TX:b:t=longa pausa.	!	!	!	!	!	!
8r	8r	.	8r	.	.	.	.
!!LO:LB:g=original
=138||	=138||	=138||	=138||	=138||	=138||	=138||	=138||
*k[b-e-a-]	*k[b-e-a-]	*	*k[b-e-a-]	*	*	*	*
*M12/8	*M12/8	*	*M12/8	*	*	*	*
!	!	!	!LO:TX:t=P:problem=brak oznaczenia zmiany metrum	!	!	!	!
4CC'\	[4.e-/ [4.c/ [<4.G</	.	4.e-/	,,A	,,Nie	,,A	.
32CC\LLL	.	.	.	.	.	.	.
32C\	.	.	.	.	.	.	.
32CC\	.	.	.	.	.	.	.
32C\JJJ	.	.	.	.	.	.	.
4CC'\	4e-/] 4c/] 4G</]	.	4e-/	gdzie	to-	du-	.
8r	8d/ 8Bn/ 8A-</ 8F</	.	8d/	przy-	-bie	-sza	.
4r	(4.d/ 4.B/^ 4.A-</ 4.F</	.	4.d/	-się-	i-	przy	.
8r	.	.	.	.	.	.	.
8C\	4c/ 4G</ 4E-</)	.	4c/	-ga?	-grać	tém	.
8r	.	.	.	.	.	.	.
8r	8r	.	8r	.	.	.	.
=139	=139	=139	=139	=139	=139	=139	=139
4CC'\	4.g/ 4.e-/ 4.G</	.	4.g/	gdzie	przez	swia-	.
32CC\LLL	.	.	.	.	.	.	.
32C\	.	.	.	.	.	.	.
32CC\	.	.	.	.	.	.	.
32C\JJJ	.	.	.	.	.	.	.
4CC'\	4g/ 4e-/ 4G</	.	4g/	mo-	srebr-	-do-	.
8r	8f/ 8d/ 8A-</	.	8f/	-ja	-ne	-mém	.
4r	(4.f/ 4.d/ (4.A-<^/	.	4.f/	ra-	to-	drze-	.
8r	.	.	.	.	.	.	.
8C\	4e-/ 4c/ 4G</))	.	4e-/	-da?	-nie	-wie	.
8r	.	.	.	.	.	.	.
8r	8r	.	8r	.	.	.	.
=140	=140	=140	=140	=140	=140	=140	=140
4CC'\	[4.d/ [4.Bn/ [4.G</	.	4.d/	wszak	lub	niech	.
32CC\LLL	.	.	.	.	.	.	.
32GG\	.	.	.	.	.	.	.
32CC\	.	.	.	.	.	.	.
32GG\JJJ	.	.	.	.	.	.	.
4CC'\	4d/] 4B/] 4G</]	.	4d/	kto	nur-	lat	.
8r	8d/ 8B/ 8G</	.	8d/	przy-	-kiem	do-	.
4r	4.g/ 4.B/ 4.G</	.	4.g/	-się-	plus-	-cze-	.
8r	.	.	.	.	.	.	.
8GG'\	4c/ 4A-/ 4G</	.	4c/	-gę	-kać	-ka	.
8r	.	.	.	.	.	.	.
8r	8d/ 8B/ 8G</	.	8d/	na-	w głąb	ty-	.
=141	=141	=141	=141	=141	=141	=141	=141
4CC\	(2.e-/ [2.c/ 2.G</	.	2.e-/	-ru-	jas-	-sią-	.
32CC\LLL	.	.	.	.	.	.	.
32C\	.	.	.	.	.	.	.
32CC\	.	.	.	.	.	.	.
32C\JJJ	.	.	.	.	.	.	.
4CC'\	.	.	.	.	.	.	.
8C\	.	.	.	.	.	.	.
8CC'\	8c/] 8E-</)	.	4c/	-szy,	-ną;	-ca;	.
8C/L	8c/L	.	.	.	.	.	.
8C/J	8c/J	.	8r	.	.	.	.
*tremolo	*tremolo	*	*	*	*	*	*
8C/L	8c/L	.	4r	.	.	.	.
8C/	8c/	.	.	.	.	.	.
8C/J	8c/J	.	8r	.	.	.	.
=142	=142	=142	=142	=142	=142	=142	=142
!	!	!LO:HP:b=2	!	!	!	!	!
8D-X/L 8C/ 8AA-/ 8FF/	8d-X/L 8c/ 8A-/ 8F/	<	4.cc\	ach	su-	wiecz-	<
8D-/ 8C/ 8AA-/ 8FF/	8d-/ 8c/ 8A-/ 8F/	.	.	.	.	.	.
8D-/ 8C/ 8AA-/ 8FF/	8d-/ 8c/ 8A-/ 8F/	.	.	.	.	.	.
8D-/ 8C/ 8AA-/ 8FF/	8d-/ 8c/ 8A-/ 8F/	.	4cc\	bia-	-ro-	-nie	.
8D-/ 8C/ 8AA-/ 8FF/	8d-/ 8c/ 8A-/ 8F/	.	.	.	.	.	.
8D-/J 8C/ 8AA-/ 8FF/	8d-/J 8c/ 8A-/ 8F/	.	8cc\	-da	-wa	pie-	.
8Dn/L 8C/ 8AAn/ 8FF#X/	8dn/L 8c/ 8An/ 8F#X/	.	4.cc\	je-	zie-	-kiel-	.
8D/ 8C/ 8AA/ 8FF#/	8d/ 8c/ 8A/ 8F#/	.	.	.	.	.	.
8D/ 8C/ 8AA/ 8FF#/	8d/ 8c/ 8A/ 8F#/	.	.	.	.	.	.
8D/ 8C/ 8AA/ 8FF#/	8d/ 8c/ 8A/ 8F#/	.	4c/	-mu,	-mia	-ne	.
8D/ 8C/ 8AA/ 8FF#/	8d/ 8c/ 8A/ 8F#/	.	.	.	.	.	.
8D/J 8C/ 8AA/ 8FF#/	8d/J 8c/ 8A/ 8F#/	.	8r	.	.	.	.
=143	=143	=143	=143	=143	=143	=143	=143
8D/L 8C/ 8GG/	8e-/L 8c/ 8G/	.	4.cc\	za	cia-	cier-	.
8D/ 8C/ 8GG/	8e-/ 8c/ 8G/	.	.	.	.	.	.
8D/ 8C/ 8GG/	8e-/ 8c/ 8G/	.	.	.	.	.	.
8D/ 8C/ 8GG/	8e-/ 8c/ 8G/	.	4cc\	ży-	-ło	-piąc	.
8D/ 8C/ 8GG/	8e-/ 8c/ 8G/	.	.	.	.	.	.
8D/J 8C/ 8GG/	8e-/J 8c/ 8G/	.	8cc\	-cia	po-	ża-	.
8En/L 8C/ 8BB-/	8en/L 8c/ 8G/	.	4.cc\	bia-	-chło-	-rze-	.
8E/ 8C/ 8BB-/	8e/ 8c/ 8G/	.	.	.	.	.	.
8E/ 8C/ 8BB-/	8e/ 8c/ 8G/	.	.	.	.	.	[
8E/ 8C/ 8BB-/	8e/ 8c/ 8G/	.	4c/	-da	-nie,	-wie,	.
8E/ 8C/ 8BB-/	8e/ 8c/ 8G/	.	.	.	.	.	.
8E/J 8C/ 8BB-/	8e/J 8c/ 8G/	[	8r	.	.	.	.
!!LO:PB:g=original
=144	=144	=144	=144	=144	=144	=144	=144
8F/L 8C/ 8AAn/	8f/L 8c/	.	4.cc\	i	o-	nie	.
!	!	!LO:HP:b=2	!	!	!	!	!
8F/ 8C/ 8AA/	8f/ 8c/	>	.	.	.	.	.
8F/J 8C/ 8AA/	8f/J 8c/	.	.	.	.	.	.
8E-/L 8AA-X/	8f#X/L 8c/	.	4b-\	bia-	-czy	ma	.
8E-/ 8AA-/	8f#/ 8c/	.	.	.	.	.	.
8E-/J 8AA-/	8f#/J 8c/	.	8a-/	-da	twe	czém	.
8E-/L 8GG/	8g/L 8c/	.	4.g/	ie-	żwi-	zga-	.
8E-/ 8GG/	8g/ 8c/	.	.	.	.	.	.
8E-/J 8GG/	8g/J 8c/	.	.	.	.	.	.
8F/L 8D/ 8GG/	8g/L 8d/ 8Bn/	.	4g/	-go	-rem	-sić	.
8F/ 8D/ 8GG/	8g/ 8d/ 8B/	.	.	.	.	.	.
8F/J 8D/ 8GG/	8g/J 8d/ 8B/	.	8g/	złej	za-	go-	.
=145	=145	=145	=145	=145	=145	=145	=145
8E-\L 8C\	8g/L 8c/	.	2.g/	du-	-gas-	-rą-	.
8E-\ 8C\	8g/ 8c/	.	.	.	.	.	.
8E-\ 8C\	8g/ 8c/	.	.	.	.	.	.
8E-\ 8C\	8g/ 8c/	.	.	.	.	.	.
8E-\ 8C\	8g/ 8c/	]	.	.	.	.	.
8E-\J 8C\	8g/J 8c/	.	.	.	.	.	.
*Xtremolo	*Xtremolo	*	*	*	*	*	*
2.ryy	2.ryy	.	4c/	-szy.	-ną.	-ca	.
!	!	!	!LO:SIC:o:s:t:v=brak zakończenia utworu	!	!	!	!
.	.	.	2ryy	.	.	.	.
==	==	==	==	==	==	==	==
*-	*-	*-	*-	*-	*-	*-	*-
!!!system-decoration: {s1,(s2,s3)}
!!!RDF**kern: > = above
!!!RDF**kern: < = below
!!!EED: Leszek Kubiak
!!!EEV: 2021-04-22
!!!ENC: Tomasz Grochalski
!!!END: 2021-04-07
!!!YEC: Copyright 2022 Narodowy Instytut Fryderyka Chopina (https://polishscores.org)
!!!YEM: License CC-BY-4.0 (https://creativecommons.org/licenses/by/4.0)
